!!!!SEGMENT: pl-kk--kk-i-1--002-002_ruffo-vincenzo--missa-alma-redemptoris-mater-et-in-terra.krn
!!!cenid: 15xx:659
!!!COM: Ruffo, Vincenzo
!!!COM-rismid: pe30002765
!!!CDT: ~1508-1587
!!!CNT: Italian
!!!OPR: Missa Alma redemptoris mater
!!!OTL: Et in terra
!!!OMV: 002
!!!PDT:
!!!AGN:
!!!SMS-siglum: PL-Kk
!!!SMS-shelfmark: Kk.I.1
!!!SMS-shelfwork: 002-002 M
!!!SMS-variant:
!!!SMS-altvar:
!!!NIFC-rismid: 300257956
!!!URL-scan: http://repozytorium.nifc.pl/skany/pl-kk-nut--i-1
!!!ONB-nifc: UWAGA: Cantus (s. 2r-11v, skan 0004-0014), Altus (s. 1r-12r, skan 0193-0204), Tenor (s. 2r-12r, skan 0390-0400), Bassus (s. 2r-12r, skan 0563-0573). Części Mszy: 1. Kyrie, 2. Et in terra, 3. Patrem, 4. Sanctus, 5. Agnus Dei
!!!key:
**kern	**text	**kern	**text	**kern	**text	**kern	**text
*part4	*part4	*part3	*part3	*part2	*part2	*part1	*part1
*staff4	*staff4	*staff3	*staff3	*staff2	*staff2	*staff1	*staff1
*Iempty	*	*Itenor	*	*Iempty	*	*Iempty	*
*I"BASSVS	*	*I"TENOR	*	*I"ALTVS	*	*I"CANTVS	*
*I'B	*	*I'T	*	*I'A	*	*I'C	*
*clefF3	*	*clefC3	*	*clefC3	*	*clefC3	*
*k[b-]	*	*k[b-]	*	*k[b-]	*	*k[b-]	*
*F:	*	*F:	*	*F:	*	*F:	*
*M2/1	*	*M2/1	*	*M2/1	*	*M2/1	*
*met(C|)	*	*met(C|)	*	*met(C|)	*	*met(C|)	*
=1-	=1-	=1-	=1-	=1-	=1-	=1-	=1-
00r	.	1.F/	ET	00r	.	00r	.
!	!	!LO:TX:t=P:problem=kreska pseudotaktowa	!	!	!	!	!
.	.	2F/	in	.	.	.	.
=2-	=2-	=2-	=2-	=2-	=2-	=2-	=2-
.	.	1A/	ter-	.	.	.	.
.	.	1B-/	-ra	.	.	.	.
=3-	=3-	=3-	=3-	=3-	=3-	=3-	=3-
!	!	!LO:TX:t=P:problem=kreska pseudotaktowa	!	!	!	!LO:TX:t=P:problem=kreska pseudotaktowa	!
00r	.	1c\	pax	00r	.	1.c\	Et
.	.	2r	.	.	.	.	.
.	.	2F/	ho-	.	.	2c/	in
=4-	=4-	=4-	=4-	=4-	=4-	=4-	=4-
.	.	2c/	mi-	.	.	1e\	ter-
!	!	!LO:TX:t=P:problem=kreska pseudotaktowa	!	!	!	!	!
.	.	2c/	-ni-	.	.	.	.
!	!	!	!	!	!	!LO:TX:t=P:problem=kreska pseudotaktowa	!
.	.	1d\	-bus	.	.	1f\	-ra
=5-	=5-	=5-	=5-	=5-	=5-	=5-	=5-
*	*	*	*	*	*	*2\right	*
!	!	!LO:TX:t=P:problem=kreska pseudotaktowa	!	!LO:TX:t=P:problem=kreska pseudotaktowa	!	!LO:TX:t=P:problem=2\right&colon; global	!
00r	.	1c\	bo-	2r	.	2g\	pax-
.	.	.	.	1F/	Et	1a\	.
.	.	2A/	-ne	.	.	.	.
!	!	!	!	!LO:TX:t=P:problem=kreska pseudotaktowa	!	!	!
.	.	2.c/	vo-	2F/	in	4g\	.
!	!	!	!	!	!	!LO:TX:t=P:problem=kreska pseudotaktowa	!
.	.	.	.	.	.	4f\	.
=6-	=6-	=6-	=6-	=6-	=6-	=6-	=6-
.	.	.	.	1A/	ter-	4e\	.
.	.	4B-/	-lun-	.	.	4d\	.
!	!	!LO:TX:t=P:problem=kreska pseudotaktowa	!	!	!	!	!
.	.	2A/	-ta-	.	.	2.f\	.
!	!	!LO:SIC:v:t=custos F	!	!	!	!	!
.	.	1G/	.	1B-/	-ra	.	.
.	.	.	.	.	.	8e\L	.
.	.	.	.	.	.	8d\J	.
.	.	.	.	.	.	2e\	.
!	!	!LO:LB:g=original	!	!	!	!	!
=7-	=7-	=7-	=7-	=7-	=7-	=7-	=7-
!LO:TX:t=P:problem=kreska pseudotaktowa	!	!LO:TX:t=P:problem=kreska pseudotaktowa	!	!LO:TX:t=P:problem=kreska pseudotaktowa	!	!LO:TX:t=P:problem=kreska pseudotaktowa	!
1.F\	Et	1F/	-tis	1c\	pax	0f\	.
.	.	1r	.	2r	.	.	.
!LO:TX:t=P:problem=kreska pseudotaktowa	!	!	!	!	!	!	!
2F/	in	.	.	2c/	ho-	.	.
=8-	=8-	=8-	=8-	=8-	=8-	=8-	=8-
1A\	ter-	0r	.	2c/	-mi-	1r	.
!	!	!	!	!LO:TX:t=P:problem=kreska pseudotaktowa	!	!	!
.	.	.	.	2c/	-(ni)-	.	.
1B-\	-ra	.	.	1d\	-bus	2r	.
!	!	!	!	!	!	!LO:TX:t=P:problem=kreska pseudotaktowa	!
.	.	.	.	.	.	2g\	-ho-
=9-	=9-	=9-	=9-	=9-	=9-	=9-	=9-
!LO:TX:t=P:problem=kreska pseudotaktowa	!	!LO:TX:t=P:problem=kreska pseudotaktowa	!	!LO:TX:t=P:problem=kreska pseudotaktowa	!	!	!
1c\	pax	2r	.	1e\	bo-	2g\	-mi-
!	!	!	!	!	!	!LO:SIC:v:t=custos a	!
!	!	!	!	!	!	!LO:TX:t=P:problem=kreska pseudotaktowa	!
.	.	2c/	ho-	.	.	2g\	-ni-
!	!	!	!	!	!	!LO:LB:g=original	!
2r	.	2c/	-mi-	2c/	-ne	0a\	-bus
*	*	*	*	*2\right	*	*	*
!	!	!LO:TX:t=P:problem=kreska pseudotaktowa	!	!	!	!	!
2F/	ho-	2c/	-ni-	2.f\	vo-	.	.
=10-	=10-	=10-	=10-	=10-	=10-	=10-	=10-
2F/	-mi-	1d\	-bus	.	.	.	.
.	.	.	.	4e/	.	.	.
!LO:TX:t=P:problem=kreska pseudotaktowa	!	!	!	!	!	!	!
2F/	-ni-	.	.	4d/	-lun-	.	.
!	!	!	!	!LO:TX:t=P:problem=kreska pseudotaktowa	!	!	!
.	.	.	.	4c/	.	.	.
!	!	!	!	!LO:SIC:v:t=custos A	!	!	!
!	!	!	!	!LO:TX:t=P:problem=kreska pseudotaktowa	!	!	!
1G\	-buſ	1e\	bo-	1B-/	-ta-	1g\	bo-
!	!	!	!	!LO:PB:g=original	!	!	!
=11-	=11-	=11-	=11-	=11-	=11-	=11-	=11-
!LO:TX:t=P:problem=kreska pseudotaktowa	!	!LO:TX:t=P:problem=kreska pseudotaktowa	!	!	!	!LO:TX:t=P:problem=kreska pseudotaktowa	!
1A\	bo-	0c\	-ne	2A/	-tis,	1c\	-n(ae)
.	.	.	.	2.c/	.	.	.
2F/	-ne	.	.	.	.	2r	.
.	.	.	.	4B-/	.	.	.
!	!	!	!	!	!	!LO:TX:t=P:problem=kreska pseudotaktowa	!
*2\right	*	*	*	*	*	*	*
2.c\	vo-	.	.	4A/	.	2f\	bo-
!	!	!	!	!LO:TX:t=P:problem=kreska pseudotaktowa	!	!	!
.	.	.	.	4G/	.	.	.
=12-	=12-	=12-	=12-	=12-	=12-	=12-	=12-
.	.	1.f\	vo-	2F/	.	1a\	-n(ae)
4B-\	.	.	.	.	.	.	.
4A/	.	.	.	1c\	uo-	.	.
!LO:SIC:v:t=custos F	!	!	!	!	!	!	!
!LO:TX:t=P:problem=kreska pseudotaktowa	!	!	!	!	!	!	!
4G/	.	.	.	.	.	.	.
!LO:LB:g=original	!	!	!	!	!	!	!
2F/	.	.	.	.	.	2a\	vo-
!	!	!	!	!LO:TX:t=P:problem=kreska pseudotaktowa	!	!	!
*	*	*2\right	*	*	*	*	*
2C/	-lun-	2e\	.	2c/	-lun-	2.g\	-lun-
=13-	=13-	=13-	=13-	=13-	=13-	=13-	=13-
*lig	*	*	*	*lig	*	*	*
1D/	-ta-	2d\	-lun-	1F/	-ta-	.	.
.	.	.	.	.	.	4f\	.
!	!	!LO:TX:t=P:problem=kreska pseudotaktowa	!	!	!	!	!
.	.	2B-/	.	.	.	2.f\	-ta-
1C/	.	1c\	-ta-	1G/	.	.	.
.	.	.	.	.	.	8e\L	.
.	.	.	.	.	.	8d\J	.
.	.	.	.	.	.	2e\	.
*Xlig	*	*	*	*Xlig	*	*	*
=14-	=14-	=14-	=14-	=14-	=14-	=14-	=14-
!LO:TX:t=P:problem=kreska pseudotaktowa	!	!LO:TX:t=P:problem=kreska pseudotaktowa	!	!LO:TX:t=P:problem=kreska pseudotaktowa	!	!LO:TX:t=P:problem=kreska pseudotaktowa	!
1F\	-tis,	1A/	-tis,	0.F/	-tis,	0f\	-tis,
2r	.	2r	.	.	.	.	.
2F/	lau-	1f\	lau-	.	.	.	.
=15-	=15-	=15-	=15-	=15-	=15-	=15-	=15-
2.A\	-da-	.	.	.	.	00r	.
.	.	4e\	.	.	.	.	.
!LO:TX:t=P:problem=kreska pseudotaktowa	!	!LO:TX:t=P:problem=kreska pseudotaktowa	!	!	!	!	!
4B-\	.	4d\	.	.	.	.	.
!	!	!LO:SIC:v:t=custos f	!	!LO:TX:t=P:problem=kreska pseudotaktowa	!	!	!
2c\	-mus	2e\	-da-	1r	.	.	.
!	!	!LO:PB:g=original	!	!	!	!	!
2.d\	te;	2.f\	.	.	.	.	.
=16-	=16-	=16-	=16-	=16-	=16-	=16-	=16-
.	.	.	.	1.f\	lau-	.	.
4c\	.	4e\	.	.	.	.	.
1c\	.	4d/	.	.	.	.	.
!	!	!LO:TX:t=P:problem=kreska pseudotaktowa	!	!	!	!	!
.	.	4c/	.	.	.	.	.
.	.	2d/	.	.	.	.	.
!LO:TX:t=P:problem=kreska pseudotaktowa	!	!	!	!	!	!	!
2B-\	.	2d/	-mus-	4e\	-da-	.	.
!	!	!	!	!LO:TX:t=P:problem=kreska pseudotaktowa	!	!	!
.	.	.	.	4d\	.	.	.
=17-	=17-	=17-	=17-	=17-	=17-	=17-	=17-
!	!	!LO:TX:t=P:problem=kreska pseudotaktowa	!	!	!	!LO:TX:t=P:problem=kreska pseudotaktowa	!
2c\	.	1c\	-te,	2e\	-mus-	1r	.
!LO:TX:t=P:problem=kreska pseudotaktowa	!	!	!	!LO:TX:t=P:problem=kreska pseudotaktowa	!	!	!
2A\	.	.	.	2f\	.	.	.
2.B-\	.	1r	.	1d\	-te;	1.f\	lau-
4A\	.	.	.	.	.	.	.
=18-	=18-	=18-	=18-	=18-	=18-	=18-	=18-
!LO:TX:t=P:problem=kreska pseudotaktowa	!	!	!	!	!	!	!
1F\	.	2r	.	2.c/	.	.	.
*	*	*	*ij	*	*	*	*
.	.	1c\	lau-	.	.	4e\	.
!	!	!	!	!LO:TX:t=P:problem=kreska pseudotaktowa	!	!LO:TX:t=P:problem=kreska pseudotaktowa	!
.	.	.	.	4B-/	.	4d\	.
0r	.	.	.	4A/	.	2e\	.
.	.	.	.	4G/	.	.	.
!	!	!LO:TX:t=P:problem=kreska pseudotaktowa	!	!	!	!	!
.	.	2B-/	.	2.d/	.	2.f\	-da-
=19-	=19-	=19-	=19-	=19-	=19-	=19-	=19-
.	.	1A/	-da-	.	.	.	.
!	!	!	!	!LO:SIC:v:t=custos c	!	!	!
.	.	.	.	4c/	.	4e\	.
!	!	!	!	!LO:LB:g=original	!	!	!
.	.	.	.	1c\	.	4d/	.
!	!	!	!	!	!	!LO:TX:t=P:problem=kreska pseudotaktowa	!
.	.	.	.	.	.	4c/	.
!	!	!LO:TX:t=P:problem=kreska pseudotaktowa	!	!	!	!LO:SIC:v:t=custos d	!
1r	.	1G/	-mus	.	.	2d/	-mus
!	!	!	!	!	!	!LO:LB:g=original	!
.	.	.	.	2B-/	.	2d/	te,
=20-	=20-	=20-	=20-	=20-	=20-	=20-	=20-
!	!	!LO:TX:t=P:problem=kreska pseudotaktowa	!	!LO:TX:t=P:problem=kreska pseudotaktowa	!	!LO:TX:t=P:problem=kreska pseudotaktowa	!
2r	.	1A/	te	0c\	.	0c\	.
*	*	*	*Xij	*	*	*	*
1F\	be-	.	.	.	.	.	.
.	.	2r	.	.	.	.	.
!LO:SIC:v:t=custos F	!	!	!	!	!	!	!
!LO:TX:t=P:problem=kreska pseudotaktowa	!	!	!	!	!	!	!
2F/	-ne-	1c\	be-	.	.	.	.
!LO:LB:g=original	!	!	!	!	!	!	!
=21-	=21-	=21-	=21-	=21-	=21-	=21-	=21-
2.F/	-di-	.	.	2r	.	2r	.
!	!	!LO:TX:t=P:problem=kreska pseudotaktowa	!	!LO:TX:t=P:problem=kreska pseudotaktowa	!	!	!
.	.	2c/	-ne-	2A/	be-	2f\	be-
4E/	-ci-	.	.	.	.	.	.
2D/	-mus	2d/	-di-	2F/	-ne-	2f\	-ne-
!LO:TX:t=P:problem=kreska pseudotaktowa	!	!	!	!	!	!LO:TX:t=P:problem=kreska pseudotaktowa	!
2C/	.	2e/	.	1c/	-di-	2g\	-di-
=22-	=22-	=22-	=22-	=22-	=22-	=22-	=22-
2.F/	te;-	2c/	-ci-	.	.	1.a\	-ci-
!	!	!	!	!LO:TX:t=P:problem=kreska pseudotaktowa	!	!	!
.	.	1f\	-mus	2c/	-ci-	.	.
4G\	.	.	.	.	.	.	.
4A\	.	.	.	2.c/	-mus-	.	.
4B-\	.	.	.	.	.	.	.
2.c\	.	4e\	.	.	.	2.g\	-mus
!	!	!LO:SIC:v:t=custos c	!	!	!	!	!
!	!	!LO:TX:t=P:problem=kreska pseudotaktowa	!	!LO:TX:t=P:problem=kreska pseudotaktowa	!	!	!
.	.	4d\	.	4B-/	.	.	.
!	!	!LO:LB:g=original	!	!	!	!	!
=23-	=23-	=23-	=23-	=23-	=23-	=23-	=23-
.	.	2c/	te,	2A/	-te;	.	.
4B-\	.	.	.	.	.	4f\	.
!LO:TX:t=P:problem=kreska pseudotaktowa	!	!	!	!	!	!	!
2A\	.	1d\	.	2F/	.	1f\	te,
1G\	.	.	.	1G/	.	.	.
!	!	!	!	!	!	!LO:TX:t=P:problem=kreska pseudotaktowa	!
.	.	4c/	.	.	.	2e\	.
!	!	!LO:TX:t=P:problem=kreska pseudotaktowa	!	!	!	!	!
.	.	4B-/	.	.	.	.	.
=24-	=24-	=24-	=24-	=24-	=24-	=24-	=24-
!LO:TX:t=P:problem=kreska pseudotaktowa	!	!LO:TX:t=P:problem=kreska pseudotaktowa	!	!LO:TX:t=P:problem=kreska pseudotaktowa	!	!LO:TX:t=P:problem=kreska pseudotaktowa	!
1F\	.	1c\	.	0.A/	.	1f\	.
2r	.	2r	.	.	.	1.a\	a-
1c\	-a-	1e\	a-	.	.	.	.
=25-	=25-	=25-	=25-	=25-	=25-	=25-	=25-
!LO:TX:t=P:problem=kreska pseudotaktowa	!	!LO:TX:t=P:problem=kreska pseudotaktowa	!	!	!	!LO:TX:t=P:problem=kreska pseudotaktowa	!
2c\	-do-	2e\	-do-	.	.	2a\	-do-
1d\	-ra-	1f\	-ra-	0r	.	1a\	-ra-
=26-	=26-	=26-	=26-	=26-	=26-	=26-	=26-
!	!	!	!	!	!	!LO:TX:t=P:problem=kreska pseudotaktowa	!
1B-\	-muſ	1d\	-mus	.	.	1g\	-mus
!LO:TX:t=P:problem=kreska pseudotaktowa	!	!LO:TX:t=P:problem=kreska pseudotaktowa	!	!	!	!LO:TX:t=P:problem=kreska pseudotaktowa	!
1A\	te;	1c\	te,	2r	.	1a\	te,
!	!	!	!	!LO:TX:t=P:problem=kreska pseudotaktowa	!	!	!
.	.	.	.	2c/	glo-	.	.
=27-	=27-	=27-	=27-	=27-	=27-	=27-	=27-
2r	.	00r	.	2c/	-ri-	2.A/	glo-
!	!	!	!	!LO:TX:t=P:problem=kreska pseudotaktowa	!	!	!
2F/	glo-	.	.	2d/	-fi-	.	.
.	.	.	.	.	.	4B-/	.
2E/	-ri-	.	.	2e\	-ca-	2c/	-ri-
!LO:SIC:v:t=custos A	!	!	!	!	!	!LO:SIC:v:t=custos c	!
!LO:TX:t=P:problem=kreska pseudotaktowa	!	!	!	!	!	!LO:TX:t=P:problem=kreska pseudotaktowa	!
2D/	-fi-	.	.	1f\	-mus	2d/	-fi-
!LO:PB:g=original	!	!	!	!	!	!LO:PB:g=original	!
=28-	=28-	=28-	=28-	=28-	=28-	=28-	=28-
*	*	*	*	*	*	*clefC2	*
2.A\	-ca-	.	.	.	.	2.c/	-ca-
.	.	.	.	4e\	te,	.	.
!	!	!	!	!LO:SIC:v:t=custos e	!	!	!
!LO:TX:t=P:problem=kreska pseudotaktowa	!	!	!	!LO:TX:t=P:problem=kreska pseudotaktowa	!	!LO:TX:t=P:problem=kreska pseudotaktowa	!
4B-\	.	.	.	4d\	.	4B-/	.
!	!	!	!	!LO:LB:g=original	!	!	!
2c\	-mus	.	.	2e\	.	4A/	.
.	.	.	.	.	.	4G/	.
2.d\	te,	.	.	2.f\	.	1B-/	-mus
=29-	=29-	=29-	=29-	=29-	=29-	=29-	=29-
.	.	0r	.	.	.	.	.
4c\	.	.	.	4e\	.	.	.
!LO:TX:t=P:problem=kreska pseudotaktowa	!	!	!	!LO:TX:t=P:problem=kreska pseudotaktowa	!	!	!
2A/	.	.	.	2c/	.	1A/	te:
2.B-\	.	.	.	1d\	.	.	.
.	.	.	.	.	.	2G/	.
4A\	.	.	.	.	.	.	.
=30-	=30-	=30-	=30-	=30-	=30-	=30-	=30-
!LO:TX:t=P:problem=kreska pseudotaktowa	!	!LO:TX:t=P:problem=kreska pseudotaktowa	!	!LO:TX:t=P:problem=kreska pseudotaktowa	!	!LO:TX:t=P:problem=kreska pseudotaktowa	!
0F\	.	2r	.	1c\	.	0.A/	.
.	.	1c\	Gra-	.	.	.	.
.	.	.	.	1r	.	.	.
!	!	!LO:TX:t=P:problem=kreska pseudotaktowa	!	!	!	!	!
.	.	2d/	-ti-	.	.	.	.
=31-	=31-	=31-	=31-	=31-	=31-	=31-	=31-
2r	.	2e\	-as	00r	.	.	.
1F\	Gra-	2.f\	a-	.	.	.	.
.	.	.	.	.	.	1r	.
.	.	4e\	.	.	.	.	.
!LO:TX:t=P:problem=kreska pseudotaktowa	!	!LO:TX:t=P:problem=kreska pseudotaktowa	!	!	!	!	!
2G/	.	2d/	-gi-	.	.	.	.
=32-	=32-	=32-	=32-	=32-	=32-	=32-	=32-
!	!	!LO:SIC:v:t=custos d	!	!	!	!	!
2A/	-ti-	2c/	-mus	.	.	1f\	Gra-
!	!	!LO:LB:g=original	!	!	!	!	!
2B-\	-as	2.d/	ti-	.	.	.	.
2G/	a-	.	.	.	.	2g\	.
.	.	4c/	-bi,	.	.	.	.
1F\	-gi-	4A/	.	.	.	1a\	-ti-
!	!	!LO:TX:t=P:problem=kreska pseudotaktowa	!	!	!	!	!
.	.	4B-/	.	.	.	.	.
=33-	=33-	=33-	=33-	=33-	=33-	=33-	=33-
!	!	!	!	!LO:TX:t=P:problem=kreska pseudotaktowa	!	!	!
.	.	4c/	.	1F/	Gra-	.	.
.	.	4A/	.	.	.	.	.
!	!	!	!	!	!	!LO:TX:t=P:problem=kreska pseudotaktowa	!
4E/	-mus	2.d/	.	.	.	2a\	-as
!LO:TX:t=P:problem=kreska pseudotaktowa	!	!	!	!	!	!	!
4D/	.	.	.	.	.	.	.
2E/	ti-	.	.	2G/	-ti-	2g\	a-
.	.	4c/	.	.	.	.	.
2F/	.	1c\	.	1A/	-as	1f\	-gi-
=34-	=34-	=34-	=34-	=34-	=34-	=34-	=34-
1D/	-bi;	.	.	.	.	.	.
!	!	!LO:TX:t=P:problem=kreska pseudotaktowa	!	!LO:TX:t=P:problem=kreska pseudotaktowa	!	!	!
.	.	2B-/	.	2F/	a-	4e/	-mus
!	!	!	!	!	!	!LO:TX:t=P:problem=kreska pseudotaktowa	!
.	.	.	.	.	.	4d/	.
!LO:TX:t=P:problem=kreska pseudotaktowa	!	!LO:TX:t=P:problem=kreska pseudotaktowa	!	!	!	!	!
1C/	.	1c\	.	2G/	-gi-	4e/	.
.	.	.	.	.	.	4f/	.
.	.	.	.	2.c/	-mus	2.g/	ti-
=35-	=35-	=35-	=35-	=35-	=35-	=35-	=35-
!LO:SIC:v:t=custos c	!	!	!	!	!	!	!
0r	.	2r	.	.	.	.	.
.	.	.	.	4B-/	.	4f/	.
!	!	!	!	!LO:TX:t=P:problem=kreska pseudotaktowa	!	!	!
.	.	2c/	prop-	2A/	ti-	1f\	-bi,
.	.	2B-/	-ter	1G/	-bi;	.	.
!	!	!	!	!	!	!LO:SIC:v:t=custos f	!
!	!	!LO:TX:t=P:problem=kreska pseudotaktowa	!	!	!	!LO:TX:t=P:problem=kreska pseudotaktowa	!
.	.	2G/	ma-	.	.	2e/	.
!LO:LB:g=original	!	!	!	!	!	!LO:LB:g=original	!
=36-	=36-	=36-	=36-	=36-	=36-	=36-	=36-
!	!	!	!	!	!	!LO:TX:t=P:problem=kreska pseudotaktowa	!
1.c\	prop	0A/	-gna(m)	00F/	.	0f\	.
!LO:TX:t=P:problem=kreska pseudotaktowa	!	!	!	!	!	!	!
2c\	ter	.	.	.	.	.	.
=37-	=37-	=37-	=37-	=37-	=37-	=37-	=37-
2A\	.	2.c/	glo-	.	.	2r	.
2F/	.	.	.	.	.	1f\	prop-
!	!	!LO:TX:t=P:problem=kreska pseudotaktowa	!	!	!	!	!
.	.	4B-/	.	.	.	.	.
!LO:TX:t=P:problem=kreska pseudotaktowa	!	!	!	!	!	!	!
1c\	ma-	2A/	-ri-	.	.	.	.
!	!	!	!	!	!	!LO:TX:t=P:problem=poprawka wysokości	!
!	!	!	!	!	!	!LO:TX:t=P:problem=kreska pseudotaktowa	!
.	.	4G/	.	.	.	2f/	-ter
.	.	4F/	.	.	.	.	.
=38-	=38-	=38-	=38-	=38-	=38-	=38-	=38-
2B-\	-gna(m)	2G/	-am	2r	.	2e/	ma-
!	!	!LO:SIC:v:t=custos c	!	!	!	!	!
!	!	!LO:TX:t=P:problem=kreska pseudotaktowa	!	!LO:TX:t=P:problem=kreska pseudotaktowa	!	!	!
2.c\	glo-	2F/	.	2c/	prop-	2f\	-gna(m)
!	!	!LO:LB:g=original	!	!	!	!	!
.	.	0c\	tu-	2c/	-ter	1a\	glo-
4B-\	-ri-	.	.	.	.	.	.
4A\	-am	.	.	2c/	ma-	.	.
!LO:TX:t=P:problem=kreska pseudotaktowa	!	!	!	!	!	!	!
4G\	.	.	.	.	.	.	.
=39-	=39-	=39-	=39-	=39-	=39-	=39-	=39-
!	!	!	!	!LO:SIC:v:t=custos c	!	!	!
2F/	.	.	.	2A/	-gna(m)	2a\	-ri-
!	!	!	!	!LO:LB:g=original	!	!	!
!	!	!	!	!LO:TX:t=P:problem=kreska pseudotaktowa	!	!	!
2E/	tu-	.	.	2c/	glo-	2.g\	-a(m)
*	*	*lig	*	*	*	*	*
1D/	.	1F/	-am,	2d/	-ri-	.	.
.	.	.	.	.	.	4f\	.
.	.	.	.	2B-/	-a(m)	1f\	tu-
=40-	=40-	=40-	=40-	=40-	=40-	=40-	=40-
!LO:TX:t=P:problem=kreska pseudotaktowa	!	!	!	!	!	!	!
1C/	-am;	1G/	.	1c\	tu-	.	.
.	.	.	.	.	.	2e/	.
*	*	*Xlig	*	*	*	*	*
!	!	!	!	!	!	!LO:TX:a:t=2	!
!	!	!LO:TX:t=P:problem=kreska pseudotaktowa	!	!LO:TX:t=P:problem=kreska pseudotaktowa	!	!LO:TX:t=P:problem=kreska pseudotaktowa	!
2r	.	0F/	.	1A/	-am,	0f\	-a(m);
1F\	Do-	.	.	.	.	.	.
=41-	=41-	=41-	=41-	=41-	=41-	=41-	=41-
.	.	.	.	2r	.	.	.
!LO:TX:t=P:problem=kreska pseudotaktowa	!	!	!	!	!	!	!
2F/	-mi-	.	.	2c/	Do-	.	.
1c\	-(n)e	1r	.	2e\	-mi-	1r	.
!	!	!	!	!LO:TX:t=P:problem=kreska pseudotaktowa	!	!	!
.	.	.	.	2e\	-ne	.	.
=42-	=42-	=42-	=42-	=42-	=42-	=42-	=42-
!LO:TX:t=P:problem=kreska pseudotaktowa	!	!	!	!	!	!	!
1c\	de-	0r	.	2.e\	de-	00r	.
.	.	.	.	4d\	-us	.	.
2A\	-us	.	.	2e\	rex	.	.
1d\	Rex	.	.	1f\	.	.	.
=43-	=43-	=43-	=43-	=43-	=43-	=43-	=43-
!	!	!LO:TX:t=P:problem=kreska pseudotaktowa	!	!	!	!	!
.	.	2r	.	.	.	.	.
!LO:TX:t=P:problem=kreska pseudotaktowa	!	!	!	!LO:TX:t=P:problem=kreska pseudotaktowa	!	!	!
2c\	ce-	2c/	do-	2e\	c(ae)-	.	.
!LO:SIC:v:t=custos A	!	!	!	!	!	!	!
1B-\	-le-	1d\	-mi-	2f\	-leſ-	.	.
.	.	.	.	2g\	.	.	.
!LO:LB:g=original	!	!	!	!	!	!	!
=44-	=44-	=44-	=44-	=44-	=44-	=44-	=44-
!LO:TX:t=P:problem=kreska pseudotaktowa	!	!LO:TX:t=P:problem=kreska pseudotaktowa	!	!LO:TX:t=P:problem=kreska pseudotaktowa	!	!LO:TX:t=P:problem=kreska pseudotaktowa	!
1A\	-ſtis,	1e\	-ne	1c\	-tis	1a\	Do
00r	.	2.f\	de-	1r	.	2a\	mi-
!	!	!	!	!	!	!LO:TX:t=P:problem=kreska pseudotaktowa	!
.	.	.	.	.	.	2a\	-ne
.	.	4e\	.	.	.	.	.
=45-	=45-	=45-	=45-	=45-	=45-	=45-	=45-
.	.	2d/	-us	00r	.	1a\	de-
!	!	!LO:TX:t=P:problem=kreska pseudotaktowa	!	!	!	!	!
.	.	2c/	rex	.	.	.	.
.	.	2d/	c(ae)-	.	.	2f\	-us
.	.	1f\	-leſ-	.	.	1a\	rex
=46-	=46-	=46-	=46-	=46-	=46-	=46-	=46-
!	!	!	!	!	!	!LO:SIC:v:t=custos f	!
!	!	!	!	!	!	!LO:TX:t=P:problem=kreska pseudotaktowa	!
.	.	2e\	-tis	.	.	2g\	ce-
!	!	!	!	!	!	!LO:LB:g=original	!
1r	.	1d\	.	.	.	1f\	-leſ-
=47-	=47-	=47-	=47-	=47-	=47-	=47-	=47-
!LO:TX:t=P:problem=kreska pseudotaktowa	!	!LO:TX:t=P:problem=kreska pseudotaktowa	!	!LO:TX:t=P:problem=kreska pseudotaktowa	!	!LO:TX:t=P:problem=kreska pseudotaktowa	!
2r	.	1c\	.	2r	.	1e\	-t(is)
2A\	de-	.	.	1e\	de-	.	.
1A\	-us	2r	.	.	.	0r	.
.	.	2c/	de-	1f\	-us	.	.
=48-	=48-	=48-	=48-	=48-	=48-	=48-	=48-
!LO:TX:t=P:problem=kreska pseudotaktowa	!	!LO:TX:t=P:problem=kreska pseudotaktowa	!	!	!	!	!
1B-\	pa-	1d\	-us	.	.	.	.
!	!	!	!	!LO:SIC:v:t=custos a	!	!	!
.	.	.	.	1g\	pa-	.	.
!	!	!LO:SIC:v:t=custos f	!	!	!	!	!
2c\	-ter	2e\	pa-	.	.	2r	.
!	!	!LO:PB:g=original	!	!LO:PB:g=original	!	!	!
!	!	!	!	!	!	!LO:TX:t=P:problem=kreska pseudotaktowa	!
2.F/	om-	1f\	-ter	1a\	.	2c/	De-
=49-	=49-	=49-	=49-	=49-	=49-	=49-	=49-
.	.	.	.	.	.	1c/	-us
4G/	.	.	.	.	.	.	.
!	!	!LO:TX:t=P:problem=kreska pseudotaktowa	!	!	!	!	!
4A\	.	2F/	om-	4g\	-ter	.	.
!LO:TX:t=P:problem=kreska pseudotaktowa	!	!	!	!LO:TX:t=P:problem=kreska pseudotaktowa	!	!	!
4B-\	.	.	.	4f\	.	.	.
2c\	.	2A/	-ni-	2e\	om-	1c/	pa-
2.C/	-ni-	2G/	.	1g\	-ni-	.	.
=50-	=50-	=50-	=50-	=50-	=50-	=50-	=50-
.	.	2.c/	-po-	.	.	2G/	-ter
4D/	-po-	.	.	.	.	.	.
4E/	-tens,	.	.	4f\	-po-	1g\	om-
!LO:TX:t=P:problem=kreska pseudotaktowa	!	!	!	!LO:TX:t=P:problem=kreska pseudotaktowa	!	!	!
4F\	.	8B-/L	-tens,	4e\	.	.	.
.	.	8A/J	.	.	.	.	.
!	!	!LO:TX:t=P:problem=kreska pseudotaktowa	!	!	!	!	!
2G/	.	2B-/	.	2d/	-tens;	.	.
!	!	!	!	!	!	!LO:TX:t=P:problem=kreska pseudotaktowa	!
2A/	.	1c\	.	2c/	.	2f/	-ni-
=51-	=51-	=51-	=51-	=51-	=51-	=51-	=51-
!	!	!	!	!LO:TX:t=P:problem=kreska pseudotaktowa	!	!	!
1G\	.	.	.	1d\	.	1g\	-po-
.	.	2B-/	.	.	.	.	.
!LO:TX:t=P:problem=kreska pseudotaktowa	!	!LO:TX:t=P:problem=kreska pseudotaktowa	!	!LO:TX:t=P:problem=kreska pseudotaktowa	!	!LO:TX:t=P:problem=kreska pseudotaktowa	!
1C/	.	1c\	.	1e\	.	1g\	-te(n)s,
=52-	=52-	=52-	=52-	=52-	=52-	=52-	=52-
2r	.	2r	.	2r	.	2r	.
1F\	Do-	1c\	Do-	1f\	Do-	1a\	Do-
!LO:SIC:v:t=custos F	!	!	!	!	!	!	!
!LO:TX:t=P:problem=kreska pseudotaktowa	!	!LO:TX:t=P:problem=kreska pseudotaktowa	!	!LO:TX:t=P:problem=kreska pseudotaktowa	!	!LO:TX:t=P:problem=kreska pseudotaktowa	!
2F/	-mi-	2c/	-mi-	2f\	-mi-	2a\	-mi-
!LO:LB:g=original	!	!	!	!	!	!	!
=53-	=53-	=53-	=53-	=53-	=53-	=53-	=53-
2F/	-ne	2c/	-ne	2f\	-ne	2a\	-(n)e
2F/	fi-	2c/	fi-	2f\	fi-	2a\	fi-
!LO:TX:t=P:problem=kreska pseudotaktowa	!	!LO:TX:t=P:problem=kreska pseudotaktowa	!	!LO:TX:t=P:problem=kreska pseudotaktowa	!	!LO:TX:t=P:problem=kreska pseudotaktowa	!
1C/	-li	1c\	-li	1e\	-li	1g\	-li
=54-	=54-	=54-	=54-	=54-	=54-	=54-	=54-
1.F\	v-	1.c\	v-	2.f\	u-	1.a\	v-
.	.	.	.	4e\	-ni-	.	.
.	.	.	.	4d/	-ge-	.	.
.	.	.	.	4c/	-ni-	.	.
!	!	!LO:TX:t=P:problem=kreska pseudotaktowa	!	!	!	!	!
2E/	-ni-	2G/	-ni-	2.c/	-te	2g\	-ni-
=55-	=55-	=55-	=55-	=55-	=55-	=55-	=55-
2D/	-ge-	2A/	-ge-	.	.	2f/	-ge-
.	.	.	.	8B-/L	.	.	.
.	.	.	.	8A/J	.	.	.
!	!	!	!	!LO:LB:g=original	!	!	!
!	!	!	!	!LO:TX:t=P:problem=kreska pseudotaktowa	!	!LO:TX:t=P:problem=kreska pseudotaktowa	!
!LO:TX:t=P:problem=kreska pseudotaktowa	!	!LO:SIC:v:t=custos G	!	!LO:SIC:v:t=custos B-	!	!LO:SIC:v:t=custos e	!
2D/	-ni-	2F/	.	2B-/	.	2f/	-ni-
!	!	!LO:LB:g=original	!	!	!	!LO:LB:g=original	!
0C/	-te,	0G/	-ni-	0c\	Ie-	1e\	-te,
=56-	=56-	=56-	=56-	=56-	=56-	=56-	=56-
.	.	.	.	.	.	0g\	Ie-
!LO:TX:t=P:problem=kreska pseudotaktowa	!	!LO:TX:t=P:problem=kreska pseudotaktowa	!	!LO:TX:t=P:problem=kreska pseudotaktowa	!	!	!
0C/	Ie-	0c\	-te,	0e\	-ſu	.	.
=57-	=57-	=57-	=57-	=57-	=57-	=57-	=57-
!	!	!	!	!	!	!LO:TX:t=P:problem=kreska pseudotaktowa	!
.	.	.	.	.	.	1g\	-ſu
1F\	-ſu	1c\	.	1f\	Chri-	1a\	Chri-
=58-	=58-	=58-	=58-	=58-	=58-	=58-	=58-
1G\	Chri-	1B-/	.	1d\	.	1g\	.
!LO:TX:t=P:problem=kreska pseudotaktowa	!	!LO:TX:t=P:problem=kreska pseudotaktowa	!	!LO:TX:t=P:problem=kreska pseudotaktowa	!	!LO:TX:t=P:problem=kreska pseudotaktowa	!
1A\	-ſte,	0A/	.	0c\	-ſte,	1e\	-ſte,
=59-	=59-	=59-	=59-	=59-	=59-	=59-	=59-
2r	.	.	.	.	.	1r	.
*	*ij	*	*	*	*	*	*
2F/	Ie-	.	.	.	.	.	.
*	*	*	*	*	*	*	*ij
2.c\	.	2r	.	2r	.	0e\	Ie-
*	*	*	*	*	*ij	*	*
.	.	2A/	Ie-	1c\	Ie-	.	.
!LO:TX:t=P:problem=kreska pseudotaktowa	!	!	!	!	!	!	!
4B-\	.	.	.	.	.	.	.
=60-	=60-	=60-	=60-	=60-	=60-	=60-	=60-
2A\	.	0c\	-ſu	.	.	.	.
!	!	!	!	!LO:TX:t=P:problem=kreska pseudotaktowa	!	!	!
2G/	.	.	.	2B-/	.	.	.
2F/	.	.	.	2A/	-ſu	1.a\	-ſu
!	!	!	!	!LO:TX:t=P:problem=kreska pseudotaktowa	!	!	!
2E/	-ſu	.	.	2G/	.	.	.
=61-	=61-	=61-	=61-	=61-	=61-	=61-	=61-
0D/	Chri-	0d\	Chri-	2.F/	Chri-	.	.
.	.	.	.	.	.	2g\	.
.	.	.	.	4G/	.	.	.
.	.	.	.	2A/	.	1f\	Chri-
.	.	.	.	2B-/	.	.	.
=62-	=62-	=62-	=62-	=62-	=62-	=62-	=62-
!LO:SIC:v:t=custos F	!	!LO:TX:t=P:problem=adnotacja Domine de(us)\ntacet	!	!	!	!	!
0C/;	-ſte	0G/;	-ſte.	0c\;	-ſte	0e\;<	-ſte
*	*Xij	*	*	*	*Xij	*	*Xij
!LO:PB:g=original	!	!	!	!	!	!	!
=63||	=63||	=63||	=63||	=63||	=63||	=63||	=63||
*M2/1	*	*	*	*M2/1	*	*M2/1	*
*met(C|)	*	*	*	*met(C|)	*	*met(C|)	*
00r	.	0ryy	.	1.F/	Do-	00r	.
!	!	!LO:TX:t=Domine \ntacet	!	!LO:TX:t=P:problem=kreska pseudotaktowa	!	!	!
.	.	.	.	2G/	-mi-	.	.
=64-	=64-	=64-	=64-	=64-	=64-	=64-	=64-
!	!	!	!	!LO:SIC:v:t=custos B-	!	!	!
.	.	0ryy	.	2A/	-ne	.	.
!	!	!	!	!LO:LB:g=original	!	!	!
.	.	.	.	1B-/	de-	.	.
.	.	.	.	4A/	-us;	.	.
!	!	!	!	!LO:TX:t=P:problem=kreska pseudotaktowa	!	!	!
.	.	.	.	4G/	.	.	.
=65-	=65-	=65-	=65-	=65-	=65-	=65-	=65-
!	!	!	!	!	!	!LO:TX:t=P:problem=kreska pseudotaktowa	!
0r	.	0ryy	.	4A/	.	1.c/	Do-
.	.	.	.	4B-/	.	.	.
.	.	.	.	1c\	.	.	.
!	!	!	!	!	!	!LO:TX:t=P:problem=kreska pseudotaktowa	!
.	.	.	.	2B-/	.	2d/	-mi-
=66-	=66-	=66-	=66-	=66-	=66-	=66-	=66-
!LO:TX:t=P:problem=kreska pseudotaktowa	!	!	!	!LO:TX:t=P:problem=kreska pseudotaktowa	!	!	!
2r	.	0ryy	.	0c\	.	2e/	-ne
1F\	Do-	.	.	.	.	1f\	De-
!LO:TX:t=P:problem=kreska pseudotaktowa	!	!	!	!	!	!	!
2F/	-mi-	.	.	.	.	4e/	-us
!	!	!	!	!	!	!LO:SIC:v:t=custos e	!
!	!	!	!	!	!	!LO:TX:t=P:problem=kreska pseudotaktowa	!
.	.	.	.	.	.	4d/	.
!	!	!	!	!	!	!LO:PB:g=original	!
=67-	=67-	=67-	=67-	=67-	=67-	=67-	=67-
2G/	-ne	0ryy	.	0r	.	2e/	.
!	!	!	!	!	!	!LO:TX:t=P:problem=kreska pseudotaktowa	!
1B-\	de-	.	.	.	.	2d/	.
.	.	.	.	.	.	1g\	.
4A\	.	.	.	.	.	.	.
!LO:TX:t=P:problem=kreska pseudotaktowa	!	!	!	!	!	!	!
4G\	.	.	.	.	.	.	.
=68-	=68-	=68-	=68-	=68-	=68-	=68-	=68-
!	!	!	!	!LO:TX:t=P:problem=kreska pseudotaktowa	!	!	!
2A\	.	0ryy	.	1r	.	2f/	.
2G\	.	.	.	.	.	2.g\	.
1.c\	.	.	.	2r	.	.	.
.	.	.	.	.	.	4f\	.
.	.	.	.	1c\	do-	4e/	.
!	!	!	!	!	!	!LO:TX:t=P:problem=kreska pseudotaktowa	!
.	.	.	.	.	.	4d/	.
=69-	=69-	=69-	=69-	=69-	=69-	=69-	=69-
.	.	0ryy	.	.	.	4e/	.
.	.	.	.	.	.	4f\	.
!LO:TX:t=P:problem=kreska pseudotaktowa	!	!	!	!LO:TX:t=P:problem=kreska pseudotaktowa	!	!	!
2B-\	.	.	.	2d/	-mi-	2.g\	.
2A\	.	.	.	2c/	-ne	.	.
.	.	.	.	.	.	4e/	.
4G/	.	.	.	4B-/	de-	1f\	.
!	!	!	!	!LO:TX:t=P:problem=kreska pseudotaktowa	!	!	!
4F/	.	.	.	4A/	.	.	.
=70-	=70-	=70-	=70-	=70-	=70-	=70-	=70-
1G\	.	0ryy	.	4B-/	-us	.	.
.	.	.	.	4A/	.	.	.
.	.	.	.	4B-/	.	2e/	.
!	!	!	!	!LO:TX:t=P:problem=kreska pseudotaktowa	!	!	!
.	.	.	.	4c/	.	.	.
!LO:TX:t=P:problem=kreska pseudotaktowa	!	!	!	!	!	!LO:TX:t=P:problem=kreska pseudotaktowa	!
0F\	-us,	.	.	2d/	.	1f\	.
.	.	.	.	2.c/	.	.	.
=71-	=71-	=71-	=71-	=71-	=71-	=71-	=71-
.	.	0ryy	.	.	.	2r	.
.	.	.	.	4B-/	.	.	.
.	.	.	.	4A/	.	1c/	do-
!	!	!	!	!LO:TX:t=P:problem=kreska pseudotaktowa	!	!	!
.	.	.	.	4G/	.	.	.
!	!	!	!	!LO:SIC:v:t=custos f	!	!	!
2r	.	.	.	2F/	.	.	.
!	!	!	!	!LO:LB:g=original	!	!	!
!	!	!	!	!	!	!LO:TX:t=P:problem=kreska pseudotaktowa	!
1F\	Do-	.	.	1f\	de-	2d/	-mi-
=72-	=72-	=72-	=72-	=72-	=72-	=72-	=72-
.	.	0ryy	.	.	.	2c/	-ne
!LO:TX:t=P:problem=kreska pseudotaktowa	!	!	!	!	!	!	!
2F/	-mi-	.	.	4e\	-us	4B-/	.
!	!	!	!	!LO:TX:t=P:problem=kreska pseudotaktowa	!	!LO:TX:t=P:problem=kreska pseudotaktowa	!
.	.	.	.	4d\	.	4A/	.
!LO:SIC:v:t=custos F	!	!	!	!	!	!	!
2G/	-ne	.	.	2e\	.	2B-/	de-
!LO:LB:g=original	!	!	!	!	!	!	!
2.F/	de-	.	.	4f\	.	2c/	.
.	.	.	.	4e\	.	.	.
=73-	=73-	=73-	=73-	=73-	=73-	=73-	=73-
!	!	!	!	!	!	!LO:SIC:v:t=custos f	!
.	.	0ryy	.	4d\	.	2F/	-us,
4E/	.	.	.	4c\	.	.	.
!	!	!	!	!	!	!LO:LB:g=original	!
!	!	!	!	!LO:TX:t=P:problem=kreska pseudotaktowa	!	!	!
4D/	.	.	.	2.c/	.	1f\	.
!LO:TX:t=P:problem=kreska pseudotaktowa	!	!	!	!	!	!	!
4C/	.	.	.	.	.	.	.
1D/	-us,	.	.	.	.	.	.
.	.	.	.	8B-/L	.	.	.
.	.	.	.	8A/J	.	.	.
.	.	.	.	2B-/	.	4e/	.
.	.	.	.	.	.	4d/	.
=74-	=74-	=74-	=74-	=74-	=74-	=74-	=74-
!LO:TX:t=P:problem=kreska pseudotaktowa	!	!	!	!LO:TX:t=P:problem=kreska pseudotaktowa	!	!LO:TX:t=P:problem=kreska pseudotaktowa	!
1C/	.	0ryy	.	0c\	.	0e\	.
2r	.	.	.	.	.	.	.
!LO:TX:t=P:problem=kreska pseudotaktowa	!	!	!	!	!	!	!
2C/	a-	.	.	.	.	.	.
=75-	=75-	=75-	=75-	=75-	=75-	=75-	=75-
2.F/	-gnus	0ryy	.	2r	.	00r	.
.	.	.	.	1c\	a-	.	.
4G\	.	.	.	.	.	.	.
2A\	de-	.	.	.	.	.	.
!LO:TX:t=P:problem=kreska pseudotaktowa	!	!	!	!LO:TX:t=P:problem=kreska pseudotaktowa	!	!	!
2B-\	.	.	.	2d/	-gnus	.	.
=76-	=76-	=76-	=76-	=76-	=76-	=76-	=76-
2c\	.	0ryy	.	2e\	.	.	.
!LO:TX:t=P:problem=kreska pseudotaktowa	!	!	!	!	!	!	!
2d\	.	.	.	1f\	de-	.	.
1B-\	.	.	.	.	.	.	.
.	.	.	.	4e\	-i	.	.
.	.	.	.	4d\	.	.	.
=77-	=77-	=77-	=77-	=77-	=77-	=77-	=77-
!LO:TX:t=P:problem=kreska pseudotaktowa	!	!	!	!LO:TX:t=P:problem=kreska pseudotaktowa	!	!	!
0A\	-i	0ryy	.	1e\	.	2r	.
!	!	!	!	!	!	!LO:TX:t=P:problem=kreska pseudotaktowa	!
.	.	.	.	.	.	2c/	a-
.	.	.	.	2r	.	2.e\	-gnus
.	.	.	.	1c\	fi-	.	.
.	.	.	.	.	.	4f\	.
=78-	=78-	=78-	=78-	=78-	=78-	=78-	=78-
2r	.	0ryy	.	.	.	2g\	de-
!	!	!	!	!LO:TX:t=P:problem=kreska pseudotaktowa	!	!LO:TX:t=P:problem=kreska pseudotaktowa	!
1F\	fi-	.	.	2A/	-li-	2a\	.
.	.	.	.	1d\	-us	1f\	.
!LO:TX:t=P:problem=kreska pseudotaktowa	!	!	!	!	!	!	!
2D/	-li-	.	.	.	.	.	.
=79-	=79-	=79-	=79-	=79-	=79-	=79-	=79-
!	!	!	!	!LO:SIC:v:t=custos A	!	!	!
!	!	!	!	!LO:TX:t=P:problem=kreska pseudotaktowa	!	!LO:TX:t=P:problem=kreska pseudotaktowa	!
1A\	-us	0ryy	.	1c\	pa-	1e\	-i,
!	!	!	!	!LO:PB:g=original	!	!	!
1F\	pa-	.	.	2A/	-tris;	2r	.
!	!	!	!	!LO:TX:t=P:problem=kreska pseudotaktowa	!	!	!
.	.	.	.	2c/	.	1f\	fi-
=80-	=80-	=80-	=80-	=80-	=80-	=80-	=80-
!LO:SIC:v:t=custos A	!	!	!	!	!	!	!
2D/	-tris,	0ryy	.	2d/	.	.	.
!LO:LB:g=original	!	!	!	!	!	!	!
!	!	!	!	!	!	!LO:TX:t=P:problem=kreska pseudotaktowa	!
*	*ij	*	*	*	*	*	*
1A\	fi-	.	.	2c/	.	2e/	-li-
.	.	.	.	1f\	.	1a\	-us
!LO:TX:t=P:problem=kreska pseudotaktowa	!	!	!	!	!	!	!
2F/	-li-	.	.	.	.	.	.
=81-	=81-	=81-	=81-	=81-	=81-	=81-	=81-
!	!	!	!	!LO:TX:t=P:problem=kreska pseudotaktowa	!	!	!
1.c\	-us	0ryy	.	1e\	.	2.g\	pa-
!	!	!	!	!	!	!LO:TX:t=P:problem=kreska pseudotaktowa	!
.	.	.	.	.	.	4f\	.
.	.	.	.	0r	.	4e/	-tris,
.	.	.	.	.	.	4d/	.
2A\	.	.	.	.	.	1f\	.
=82-	=82-	=82-	=82-	=82-	=82-	=82-	=82-
1B-\	pa-	0ryy	.	.	.	.	.
.	.	.	.	.	.	4e/	.
.	.	.	.	.	.	4d/	.
!LO:TX:t=P:problem=kreska pseudotaktowa	!	!	!	!	!	!LO:TX:t=P:problem=kreska pseudotaktowa	!
1A\	-tris	.	.	2r	.	1c/	.
*	*Xij	*	*	*	*	*	*
.	.	.	.	1e\	fi-	.	.
=83-	=83-	=83-	=83-	=83-	=83-	=83-	=83-
!	!	!	!	!	!	!LO:SIC:v:t=custos e	!
0r	.	0ryy	.	.	.	2r	.
!	!	!	!	!	!	!LO:LB:g=original	!
!	!	!	!	!LO:TX:t=P:problem=kreska pseudotaktowa	!	!	!
.	.	.	.	2c/	-li-	1e\	fi-
.	.	.	.	1g\	-us	.	.
!	!	!	!	!	!	!LO:TX:t=P:problem=kreska pseudotaktowa	!
.	.	.	.	.	.	2e/	-li-
=84-	=84-	=84-	=84-	=84-	=84-	=84-	=84-
2r	.	0ryy	.	1e\	pa-	2.g\	-us
1c\	fi-	.	.	.	.	.	.
.	.	.	.	.	.	4f\	.
!	!	!	!	!LO:TX:t=P:problem=kreska pseudotaktowa	!	!	!
.	.	.	.	1c\	-tris,	2g\	pa-
!LO:TX:t=P:problem=kreska pseudotaktowa	!	!	!	!	!	!	!
2F/	-li-	.	.	.	.	2.a\	-tris,
=85-	=85-	=85-	=85-	=85-	=85-	=85-	=85-
1A\	-us	0ryy	.	2r	.	.	.
.	.	.	.	.	.	4g\	.
*	*	*	*	*	*ij	*	*
.	.	.	.	2c/	fi-	4e/	.
!	!	!	!	!	!	!LO:TX:t=P:problem=kreska pseudotaktowa	!
.	.	.	.	.	.	4f/	.
1G\	pa-	.	.	2B-/	-li-	1g\	.
!	!	!	!	!LO:TX:t=P:problem=kreska pseudotaktowa	!	!	!
.	.	.	.	2G/	-us	.	.
=86-	=86-	=86-	=86-	=86-	=86-	=86-	=86-
!LO:TX:t=P:problem=kreska pseudotaktowa	!	!	!	!	!	!	!
1F\	-tris	0ryy	.	2.A/	pa-	2c/	fi-
!	!	!	!	!	!	!LO:TX:t=P:problem=kreska pseudotaktowa	!
.	.	.	.	.	.	2f/	-li-
.	.	.	.	4B-/	.	.	.
2r	.	.	.	2c/	.	2e/	-us
*	*ij	*	*	*	*	*	*
1F\	fi-	.	.	2d/	.	1a\	pa-
=87-	=87-	=87-	=87-	=87-	=87-	=87-	=87-
.	.	0ryy	.	2.c/	.	.	.
2C/	-li-	.	.	.	.	2.g\	-triS,
!	!	!	!	!LO:SIC:v:t=custos A	!	!	!
!	!	!	!	!LO:TX:t=P:problem=kreska pseudotaktowa	!	!	!
.	.	.	.	4B-/	.	.	.
!	!	!	!	!LO:LB:g=original	!	!	!
1D/	-us	.	.	2A/	.	.	.
*	*Xij	*	*	*	*	*	*
.	.	.	.	.	.	4f\	.
.	.	.	.	4G/	.	1f\	.
.	.	.	.	4F/	.	.	.
=88-	=88-	=88-	=88-	=88-	=88-	=88-	=88-
!LO:TX:t=P:problem=kreska pseudotaktowa	!	!	!	!	!	!	!
1C/	pa-	0ryy	.	1G/	.	.	.
.	.	.	.	.	.	2e/	.
!LO:TX:t=P:problem=kreska pseudotaktowa	!	!	!	!LO:TX:t=P:problem=kreska pseudotaktowa	!	!LO:TX:t=P:problem=kreska pseudotaktowa	!
1F\	-triS,	.	.	0F/	-tris	0f\	.
*	*	*	*	*	*Xij	*	*
=89-	=89-	=89-	=89-	=89-	=89-	=89-	=89-
2r	.	0ryy	.	.	.	.	.
*	*ij	*	*	*	*	*	*
1c\	fi-	.	.	.	.	.	.
.	.	.	.	2r	.	2r	.
!LO:TX:t=P:problem=kreska pseudotaktowa	!	!	!	!	!	!	!
*	*	*	*	*	*	*	*ij
2F/	-li-	.	.	1c\	-fi-	2f/	fi-
=90-	=90-	=90-	=90-	=90-	=90-	=90-	=90-
!LO:SIC:v:t=custos G	!	!	!	!	!	!	!
1A\	-us	0ryy	.	.	.	2e/	-li-
!	!	!	!	!	!	!LO:SIC:v:t=custos g	!
!	!	!	!	!LO:TX:t=P:problem=kreska pseudotaktowa	!	!LO:TX:t=P:problem=kreska pseudotaktowa	!
.	.	.	.	2c/	-li-	2f/	-us
*	*	*	*	*	*	*	*Xij
!LO:LB;g=original	!	!	!	!	!	!LO:LB;g=original	!
1G\	pa-	.	.	2d/	-us	2.g\	.
.	.	.	.	2e\	.	.	.
.	.	.	.	.	.	8f\L	.
.	.	.	.	.	.	8g\J	.
=91-	=91-	=91-	=91-	=91-	=91-	=91-	=91-
!LO:TX:t=P:problem=kreska pseudotaktowa	!	!	!	!	!	!	!
1F\	-triS	0ryy	.	2.f\	pa-	2a\	.
*	*Xij	*	*	*	*	*	*
!	!	!	!	!	!	!LO:TX:t=P:problem=kreska pseudotaktowa	!
.	.	.	.	.	.	2f\	.
.	.	.	.	8e\L	-tris,	.	.
.	.	.	.	8d\J	.	.	.
!	!	!	!	!LO:TX:t=P:problem=kreska pseudotaktowa	!	!	!
2r	.	.	.	4c/	.	2g\	pa-
.	.	.	.	4B-/	.	.	.
1F\	fi-	.	.	4A/	.	1a\	.
.	.	.	.	4G/	.	.	.
=92-	=92-	=92-	=92-	=92-	=92-	=92-	=92-
.	.	0ryy	.	4A/	.	.	.
.	.	.	.	4B-/	.	.	.
!LO:TX:t=P:problem=kreska pseudotaktowa	!	!	!	!	!	!	!
2C/	-li-	.	.	4c/	.	2.g\	.
!	!	!	!	!LO:TX:t=P:problem=kreska pseudotaktowa	!	!	!
.	.	.	.	4A/	.	.	.
1D/	-uS	.	.	4B-/	.	.	.
.	.	.	.	4A/	.	4f\	.
.	.	.	.	4G/	.	1f\	.
.	.	.	.	4F/	.	.	.
=93-	=93-	=93-	=93-	=93-	=93-	=93-	=93-
1C/	pa-	0ryy	.	1G/	.	.	.
.	.	.	.	.	.	2e/	.
!	!	!	!	!LO:SIC:v:t=custos F	!	!	!
!	!	!	!	!LO:N:vis=0	!	!	!
1F\;<	-triS.	.	.	1F/;	.	1f\;	-tr(is)
!	!	!	!	!LO:LB:g=original	!	!	!
=94||	=94||	=94||	=94||	=94||	=94||	=94||	=94||
*M2/1	*	*M2/1	*	*M2/1	*	*M2/1	*
*met(C|)	*	*met(C|)	*	*met(C|)	*	*met(C|)	*
!LO:TX:t=P:problem=kreska pseudotaktowa	!	!	!	!	!	!	!
1r	.	1F/	Qui	00r	.	0r	.
1.F\	Qui	2.A/	tol-	.	.	.	.
!	!	!LO:TX:t=P:problem=kreska pseudotaktowa	!	!	!	!	!
.	.	4B-/	.	.	.	.	.
=95-	=95-	=95-	=95-	=95-	=95-	=95-	=95-
!	!	!LO:SIC:v:t=custos d	!	!	!	!LO:TX:t=P:problem=kreska pseudotaktowa	!
.	.	2c/	-lis	.	.	1r	.
!	!	!LO:LB:g=original	!	!	!	!	!
4E/	.	2.d/	.	.	.	.	.
!LO:TX:t=P:problem=kreska pseudotaktowa	!	!	!	!	!	!	!
4D/	.	.	.	.	.	.	.
2E/	tol-	.	.	.	.	2r	.
.	.	4c/	.	.	.	.	.
2F/	.	1c\	.	.	.	1f\	Qui
=96-	=96-	=96-	=96-	=96-	=96-	=96-	=96-
!	!	!	!	!LO:TX:t=P:problem=kreska pseudotaktowa	!	!	!
1D/	-liS	.	.	1F/	Qui	.	.
!	!	!LO:TX:t=P:problem=kreska pseudotaktowa	!	!	!	!	!
.	.	2B-/	.	.	.	4e/	.
!	!	!	!	!	!	!LO:TX:t=P:problem=kreska pseudotaktowa	!
.	.	.	.	.	.	4d/	.
!LO:TX:t=P:problem=kreska pseudotaktowa	!	!	!	!	!	!	!
1C/	.	1.c\	.	2.A/	tol-	2.e/	.
!	!	!	!	!LO:TX:t=P:problem=kreska pseudotaktowa	!	!LO:TX:t=P:problem=kreska pseudotaktowa	!
.	.	.	.	4B-/	.	4d/	.
=97-	=97-	=97-	=97-	=97-	=97-	=97-	=97-
!	!	!	!	!	!	!LO:SIC:v:t=custos f	!
0r	.	.	.	2c/	-lis	2e/	.
!	!	!	!	!	!	!LO:PB:g=original	!
.	.	2B-/	.	2.d\	.	2.f/	tol-
.	.	1A/	.	.	.	.	.
.	.	.	.	4c/	.	4e/	.
.	.	.	.	1c\	.	4d/	.
!	!	!	!	!	!	!LO:TX:t=P:problem=kreska pseudotaktowa	!
.	.	.	.	.	.	4c/	.
=98-	=98-	=98-	=98-	=98-	=98-	=98-	=98-
!LO:TX:t=P:problem=kreska pseudotaktowa	!	!LO:TX:t=P:problem=kreska pseudotaktowa	!	!	!	!	!
1r	.	1G/	.	.	.	1d/	.
.	.	.	.	2B-/	.	.	.
!	!	!	!	!LO:TX:t=P:problem=kreska pseudotaktowa	!	!	!
1.F\	pec-	2r	.	1c\	.	1c/	-lis
.	.	2F/	pec-	.	.	.	.
=99-	=99-	=99-	=99-	=99-	=99-	=99-	=99-
!	!	!	!	!	!	!LO:TX:t=P:problem=kreska pseudotaktowa	!
.	.	2A/	ca-	0r	.	1f\	pec-
!LO:SIC:v:t=custos A	!	!	!	!	!	!	!
!LO:TX:t=P:problem=kreska pseudotaktowa	!	!LO:TX:t=P:problem=kreska pseudotaktowa	!	!	!	!	!
2G/	-ca-	2B-/	-ta	.	.	.	.
!LO:PB:g=original	!	!	!	!	!	!	!
2.A\	-ta	2.c/	mun-	.	.	1.e\	-ca-
!LO:TX:t=P:problem=kreska pseudotaktowa	!	!LO:TX:t=P:problem=kreska pseudotaktowa	!	!	!	!	!
4B-\	.	4d/	.	.	.	.	.
=100-	=100-	=100-	=100-	=100-	=100-	=100-	=100-
!	!	!	!	!LO:TX:t=P:problem=kreska pseudotaktowa	!	!	!
2c\	.	2e\	.	1r	.	.	.
!	!	!	!	!	!	!LO:TX:t=P:problem=kreska pseudotaktowa	!
!	!	!	!	!	!	!LO:TX:t=P:problem=błędnie "c"	!
2.d\	.	2.f\	-di,	.	.	2c/	-ta
.	.	.	.	1.F/	pec-	1.a\	mun-
4c\	.	4e\	.	.	.	.	.
1c\	mun-	4d\	.	.	.	.	.
!	!	!LO:TX:t=P:problem=kreska pseudotaktowa	!	!	!	!	!
.	.	4c/	.	.	.	.	.
=101-	=101-	=101-	=101-	=101-	=101-	=101-	=101-
.	.	1d\	.	.	.	.	.
!LO:TX:t=P:problem=kreska pseudotaktowa	!	!	!	!	!	!	!
2B-\	.	.	.	2G/	.	4g\	.
!	!	!	!	!	!	!LO:TX:t=P:problem=kreska pseudotaktowa	!
.	.	.	.	.	.	4f\	.
!	!	!LO:SIC:v:t=custos g	!	!	!	!	!
!	!	!LO:TX:t=P:problem=kreska pseudotaktowa	!	!	!	!	!
1.c\	.	1c\	.	2.A/	-ca-	2.e/	-di
!	!	!	!	!LO:TX:t=P:problem=kreska pseudotaktowa	!	!	!
.	.	.	.	4B-/	-ta	4d/	.
=102-	=102-	=102-	=102-	=102-	=102-	=102-	=102-
.	.	0r	.	2c/	mun-	4e/	.
.	.	.	.	.	.	4c/	.
2B-\	-di,	.	.	2.d\	.	2.f/	.
1A\	mi-	.	.	.	.	.	.
.	.	.	.	4c/	.	4e/	.
.	.	.	.	1c\	-di,	4d/	.
!	!	!	!	!	!	!LO:TX:t=P:problem=kreska pseudotaktowa	!
.	.	.	.	.	.	4c/	.
!	!	!LO:LB:g=original	!	!	!	!	!
=103-	=103-	=103-	=103-	=103-	=103-	=103-	=103-
!LO:TX:t=P:problem=kreska pseudotaktowa	!	!	!	!	!	!	!
1G\	-ſe-	1.g\	mi-	.	.	1d/	.
.	.	.	.	2B-/	.	.	.
!	!	!	!	!LO:TX:t=P:problem=kreska pseudotaktowa	!	!	!
1.c\	-re-	.	.	1c\	.	1c/	.
!	!	!LO:TX:t=P:problem=kreska pseudotaktowa	!	!	!	!	!
.	.	2f\	-ſe-	.	.	.	.
=104-	=104-	=104-	=104-	=104-	=104-	=104-	=104-
!	!	!	!	!	!	!LO:TX:t=P:problem=kreska pseudotaktowa	!
.	.	2e\	-re-	1r	.	1g\	mi-
2B-\	-re	2d/	.	.	.	.	.
!	!	!LO:TX:t=P:problem=kreska pseudotaktowa	!	!LO:SIC:v:t=custos f	!	!	!
2A\	no-	1c\	-re	1e\	mi-	1.a\	-ſe-
!LO:TX:t=P:problem=kreska pseudotaktowa	!	!	!	!	!	!	!
2G/	.	.	.	.	.	.	.
!	!	!	!	!LO:LB:g=original	!	!	!
=105-	=105-	=105-	=105-	=105-	=105-	=105-	=105-
2.F/	.	2A/	no-	1.f\	-ſe-	.	.
!	!	!	!	!	!	!LO:SIC:v:t=custos a	!
.	.	1c\	.	.	.	2f\	-re-
4E/	.	.	.	.	.	.	.
!	!	!	!	!	!	!LO:LB:g=original	!
2F/	.	.	.	.	.	2a\	-re
!	!	!LO:TX:t=P:problem=kreska pseudotaktowa	!	!LO:TX:t=P:problem=kreska pseudotaktowa	!	!	!
2C/	.	2c/	-bis,	2e\	-re-	2.g\	no-
=106-	=106-	=106-	=106-	=106-	=106-	=106-	=106-
2D/	.	2A/	.	1d\	-re	.	.
.	.	.	.	.	.	4f\	.
!LO:TX:t=P:problem=kreska pseudotaktowa	!	!	!	!	!	!	!
2BB-/	.	2B-/	.	.	.	1f\	-bis,
!LO:LB:g=original	!	!	!	!	!	!	!
!LO:TX:t=P:problem=kreska pseudotaktowa	!	!LO:TX:t=P:problem=kreska pseudotaktowa	!	!	!	!	!
1C/	-bis;	1G/	.	1c\	no-	.	.
.	.	.	.	.	.	2e/	.
=107-	=107-	=107-	=107-	=107-	=107-	=107-	=107-
!	!	!LO:TX:t=P:problem=kreska pseudotaktowa	!	!LO:TX:t=P:problem=kreska pseudotaktowa	!	!LO:TX:t=P:problem=kreska pseudotaktowa	!
1r	.	1F/	Qui	1A/	-bis;	0f\	.
2r	.	2.A/	tol-	1r	.	.	.
1F\	Qui	.	.	.	.	.	.
!	!	!LO:TX:t=P:problem=kreska pseudotaktowa	!	!	!	!	!
.	.	4B-/	.	.	.	.	.
=108-	=108-	=108-	=108-	=108-	=108-	=108-	=108-
.	.	2c/	-lis	0r	.	2r	.
!	!	!	!	!	!	!LO:TX:t=P:problem=kreska pseudotaktowa	!
4E/	.	2.d/	.	.	.	2a\	qui
!LO:TX:t=P:problem=kreska pseudotaktowa	!	!	!	!	!	!	!
4D/	.	.	.	.	.	.	.
2E/	tol-	.	.	.	.	2g\	tol-
.	.	4c/	.	.	.	.	.
2F/	-lis	1c\	.	.	.	1a\	-lis-
=109-	=109-	=109-	=109-	=109-	=109-	=109-	=109-
!LO:TX:t=P:problem=kreska pseudotaktowa	!	!	!	!LO:TX:t=P:problem=kreska pseudotaktowa	!	!	!
1D/	.	.	.	1F/	qui	.	.
!	!	!LO:TX:t=P:problem=kreska pseudotaktowa	!	!	!	!	!
.	.	2B-/	.	.	.	4g\	.
!	!	!	!	!	!	!LO:TX:t=P:problem=kreska pseudotaktowa	!
.	.	.	.	.	.	4f\	.
2C/	.	1c\	.	2G/	.	1e\	-pec-
1c\	pec-	.	.	1A/	tol-	.	.
=110-	=110-	=110-	=110-	=110-	=110-	=110-	=110-
!	!	!LO:TX:t=P:problem=kreska pseudotaktowa	!	!	!	!LO:TX:t=P:problem=kreska pseudotaktowa	!
.	.	1F/	pec-	.	.	1a\	-ca-
!	!	!	!	!LO:TX:t=P:problem=kreska pseudotaktowa	!	!	!
4B-\	-ca-	.	.	2f\	-lis	.	.
!LO:TX:t=P:problem=kreska pseudotaktowa	!	!	!	!	!	!	!
4A\	.	.	.	.	.	.	.
!	!	!LO:SIC:v:t=custos A	!	!	!	!	!
2B-\	-ta	2G/	.	2d\	pec-	2g\	-ta
!	!	!LO:PB:g=original	!	!	!	!	!
!LO:TX:t=P:problem=kreska pseudotaktowa	!	!	!	!	!	!	!
2c\	.	2A/	-ca-	2c/	-ca-	2e/	mun-
=111-	=111-	=111-	=111-	=111-	=111-	=111-	=111-
2A\	.	2F/	ta	2.f\	-ta	2.a\	.
2.d\	mun-	1B-/	mun-	.	.	.	.
!	!	!	!	!LO:TX:t=P:problem=kreska pseudotaktowa	!	!	!
.	.	.	.	4e\	.	8g\L	.
!	!	!	!	!	!	!LO:TX:t=P:problem=kreska pseudotaktowa	!
.	.	.	.	.	.	8f\J	.
.	.	.	.	2d\	mun-	2g\	.
4c\	.	.	.	.	.	.	.
!LO:TX:t=P:problem=kreska pseudotaktowa	!	!	!	!	!	!	!
2A\	.	1A/	.	2c\	.	2a\	.
=112-	=112-	=112-	=112-	=112-	=112-	=112-	=112-
2.B-\	-di,	.	.	4d\	-di	2f/	.
.	.	.	.	4c\	.	.	.
!	!	!LO:TX:t=P:problem=kreska pseudotaktowa	!	!	!	!	!
.	.	2G/	.	4d\	.	2g\	.
!	!	!	!	!LO:TX:t=P:problem=kreska pseudotaktowa	!	!	!
8A\L	.	.	.	4e\	.	.	.
8G\J	.	.	.	.	.	.	.
!	!	!	!	!	!	!LO:SIC:v:t=custos g	!
!LO:TX:t=P:problem=kreska pseudotaktowa	!	!LO:TX:t=P:problem=kreska pseudotaktowa	!	!	!	!LO:TX:t=P:problem=kreska pseudotaktowa	!
0F\	.	0A/	-di	0f\	ſu-	0c/	-di,
!	!	!	!	!	!	!LO:LB;g=original	!
=113-	=113-	=113-	=113-	=113-	=113-	=113-	=113-
!LO:SIC:v:t=custos C	!	!	!	!	!	!	!
0C/	ſu-	0c\	ſu-	0e\	-ſci-	0g\	Su-
=114-	=114-	=114-	=114-	=114-	=114-	=114-	=114-
!LO:LB;g=original	!	!	!	!	!	!	!
!	!	!	!	!LO:SIC:v:t=custos f	!	!	!
!	!	!	!	!LO:TX:t=P:problem=kreska pseudotaktowa	!	!LO:TX:t=P:problem=kreska pseudotaktowa	!
1C/	-ſci-	1c\	-ſci-	1e\	-pe,	1g\	-ſci-
!	!	!	!	!LO:PB:g=original	!	!	!
=115-	=115-	=115-	=115-	=115-	=115-	=115-	=115-
!	!	!LO:TX:t=P:problem=kreska pseudotaktowa	!	!LO:TX:t=P:problem=kreska pseudotaktowa	!	!	!
0F\	-pe;	0c\	-pe	1f\	.	1.a\	-pe
.	.	.	.	1r	.	.	.
.	.	.	.	.	.	4g\	.
!	!	!	!	!	!	!LO:TX:t=P:problem=kreska pseudotaktowa	!
.	.	.	.	.	.	4f\	.
=116-	=116-	=116-	=116-	=116-	=116-	=116-	=116-
!LO:TX:t=P:problem=kreska pseudotaktowa	!	!	!	!	!	!	!
*	*ij	*	*	*	*	*	*
0F\	ſu-	0c\	.	0f\	ſu-	1a\	.
*	*	*	*	*	*	*	*ij
.	.	.	.	.	.	1.a\	Su-
=117-	=117-	=117-	=117-	=117-	=117-	=117-	=117-
1F\	-ſci-	1c\	.	1f\	-ſci-	.	.
.	.	.	.	.	.	2a\	-ſci-
!LO:TX:t=P:problem=kreska pseudotaktowa	!	!LO:TX:t=P:problem=kreska pseudotaktowa	!	!LO:TX:t=P:problem=kreska pseudotaktowa	!	!LO:TX:t=P:problem=kreska pseudotaktowa	!
1C/	-pe;	0c\	.	0e\	-pe	1g\	-pe
*	*Xij	*	*	*	*	*	*Xij
=118-	=118-	=118-	=118-	=118-	=118-	=118-	=118-
2r	.	.	.	.	.	2r	.
1c\	de-	.	.	.	.	1g\	de-
.	.	2r	.	0r	.	.	.
!LO:TX:t=P:problem=kreska pseudotaktowa	!	!	!	!	!	!LO:TX:t=P:problem=kreska pseudotaktowa	!
2B-\	-pre-	2d/	de-	.	.	2g\	-pre-
=119-	=119-	=119-	=119-	=119-	=119-	=119-	=119-
2A\	-ca-	2e\	-pre-	.	.	1.a\	-ca-
!	!	!LO:TX:t=P:problem=kreska pseudotaktowa	!	!	!	!	!
2F/	-ti-	2f\	-ca-	.	.	.	.
2A\	-o-	2e\	-ti-	2r	.	.	.
!LO:TX:t=P:problem=kreska pseudotaktowa	!	!	!	!	!	!	!
2B-\	.	1d\	-o-	1f\	de-	2f/	-ti-
=120-	=120-	=120-	=120-	=120-	=120-	=120-	=120-
!	!	!	!	!	!	!LO:TX:t=P:problem=kreska pseudotaktowa	!
1G\	-nem	.	.	.	.	1g\	-o-
!	!	!	!	!LO:TX:t=P:problem=kreska pseudotaktowa	!	!	!
.	.	4c\	-nem	2e/	-pre-	.	.
!	!	!LO:TX:t=P:problem=kreska pseudotaktowa	!	!	!	!	!
.	.	4B-/	.	.	.	.	.
1.F\	noſ-	2A/	.	2.f\	-ca-	1.a\	-ne(m)-
!	!	!LO:SIC:v:t=custos G	!	!	!	!	!
.	.	1F/	.	.	.	.	.
.	.	.	.	4e\	-ti-	.	.
=121-	=121-	=121-	=121-	=121-	=121-	=121-	=121-
.	.	.	.	2d/	o-	.	.
!	!	!LO:LB:g=original	!	!	!	!	!
!	!	!LO:TX:t=P:problem=kreska pseudotaktowa	!	!LO:TX:t=P:problem=kreska pseudotaktowa	!	!	!
2E/	.	2G/	noſ-	2c/	-nem	2g\	.
2D/	.	4A/	.	2d/	noſ-	2f/	-noſ-
.	.	4G/	.	.	.	.	.
2C/	-tram;	1c\	-tram,	2e\	.	2e/	.
=122-	=122-	=122-	=122-	=122-	=122-	=122-	=122-
!	!	!	!	!	!	!LO:TX:t=P:problem=kreska pseudotaktowa	!
1D/	.	.	.	1f\	.	1d/	-tram
.	.	2B-/	.	.	.	.	.
!LO:TX:t=P:problem=kreska pseudotaktowa	!	!LO:TX:t=P:problem=kreska pseudotaktowa	!	!LO:TX:t=P:problem=kreska pseudotaktowa	!	!LO:SIC:v:t=custos g	!
1C/	.	0c\	.	0e\	-tra(m),	2r	.
!	!	!	!	!	!	!LO:LB;g=original	!
.	.	.	.	.	.	1g\	qui
=123-	=123-	=123-	=123-	=123-	=123-	=123-	=123-
2r	.	.	.	.	.	.	.
!	!	!	!	!	!	!LO:TX:t=P:problem=kreska pseudotaktowa	!
1c\	Qui	.	.	.	.	2g\	ſe-
.	.	2r	.	1r	.	2e/	-des
!LO:SIC:v:t=custos A	!	!	!	!	!	!	!
!LO:TX:t=P:problem=kreska pseudotaktowa	!	!	!	!	!	!	!
2c\	ſe-	1c\	Qui-	.	.	2e/	ad
!LO:LB:g=original	!	!	!	!	!	!	!
=124-	=124-	=124-	=124-	=124-	=124-	=124-	=124-
2A\	-des	.	.	0r	.	1.f\	dex-
!LO:TX:t=P:problem=kreska pseudotaktowa	!	!LO:TX:t=P:problem=kreska pseudotaktowa	!	!	!	!	!
2F/	ad	2c/	-ſe-	.	.	.	.
2.B-\	dex-	2.d/	-des	.	.	.	.
!	!	!	!	!	!	!LO:TX:t=P:problem=kreska pseudotaktowa	!
.	.	.	.	.	.	2d/	-te-
4A\	.	4c/	ad	.	.	.	.
=125-	=125-	=125-	=125-	=125-	=125-	=125-	=125-
!	!	!	!	!LO:TX:t=P:problem=kreska pseudotaktowa	!	!	!
2G\	-te-	2B-/	dex-	1r	.	1e\	-ra(m)
!LO:TX:t=P:problem=kreska pseudotaktowa	!	!LO:TX:t=P:problem=kreska pseudotaktowa	!	!	!	!	!
2.c\	-ram-	2A/	.	.	.	.	.
.	.	2.F/	-te-	2r	.	2f/	pa-
4B-\	.	.	.	.	.	.	.
!	!	!	!	!LO:TX:t=P:problem=kreska pseudotaktowa	!	!	!
4A\	.	.	.	2c/	mi-	2.a\	.
4G\	.	4G/	.	.	.	.	.
=126-	=126-	=126-	=126-	=126-	=126-	=126-	=126-
2F/	-pa-	4A/	-ra(m)	1f\	-ſe-	.	.
.	.	4B-/	.	.	.	4g\	.
!LO:TX:t=P:problem=kreska pseudotaktowa	!	!	!	!	!	!	!
2A\	-triS	1c\	pa-	.	.	1f\	.
!	!	!	!	!LO:SIC:v:t=custos a	!	!	!
!	!	!	!	!LO:TX:t=P:problem=kreska pseudotaktowa	!	!	!
1G\	.	.	.	1g\	-re-	.	.
!	!	!LO:TX:t=P:problem=kreska pseudotaktowa	!	!	!	!LO:TX:t=P:problem=kreska pseudotaktowa	!
.	.	2B-/	.	.	.	2e/	.
!	!	!	!	!LO:LB:g=original	!	!	!
=127-	=127-	=127-	=127-	=127-	=127-	=127-	=127-
!LO:TX:t=P:problem=kreska pseudotaktowa	!	!LO:TX:t=P:problem=kreska pseudotaktowa	!	!	!	!	!
1F\	.	1c\	-tris,	1.a\	-re	2f/	.
.	.	.	.	.	.	2c/	-tr(is),
2r	.	2r	.	.	.	2f\	mi-
!LO:TX:t=P:problem=kreska pseudotaktowa	!	!	!	!LO:TX:t=P:problem=kreska pseudotaktowa	!	!LO:TX:t=P:problem=kreska pseudotaktowa	!
2C/	mi-	2c/	mi-	2g\	no-	2g\	-ſe-
=128-	=128-	=128-	=128-	=128-	=128-	=128-	=128-
1F\	-ſe-	1c\	-ſe-	2.f\	-bis,	1a\	-re-
.	.	.	.	4e\	.	.	.
!	!	!LO:SIC:v:t=custos A	!	!	!	!	!
!LO:TX:t=P:problem=kreska pseudotaktowa	!	!LO:TX:t=P:problem=kreska pseudotaktowa	!	!	!	!LO:TX:t=P:problem=kreska pseudotaktowa	!
1G\	-re-	1B-/	-re-	4d\	.	1g\	-re
.	.	.	.	4c\	.	.	.
!	!	!	!	!LO:TX:t=P:problem=kreska pseudotaktowa	!	!	!
.	.	.	.	2d\	.	.	.
!	!	!LO:LB:g=original	!	!	!	!	!
=129-	=129-	=129-	=129-	=129-	=129-	=129-	=129-
2.A\	-re	2A/	-re	2c/	.	2e/	no-
!	!	!	!	!	!	!LO:SIC:v:t=custos g	!
.	.	1F/	no-	2.d\	.	1a\	.
4G/	.	.	.	.	.	.	.
2F/	no-	.	.	.	.	.	.
.	.	.	.	4A/	.	.	.
!	!	!	!	!	!	!LO:PB;g=original	!
!	!	!LO:TX:t=P:problem=kreska pseudotaktowa	!	!	!	!LO:TX:t=P:problem=kreska pseudotaktowa	!
2E/	-bis	2G/	-bis	2.c/	.	2g\	-bis,
=130-	=130-	=130-	=130-	=130-	=130-	=130-	=130-
!LO:SIC:v:t=custos C	!	!	!	!	!	!	!
!LO:TX:t=P:problem=kreska pseudotaktowa	!	!	!	!	!	!	!
1D/	.	2A/	.	.	.	1f\	.
.	.	.	.	8B-/L	.	.	.
.	.	.	.	8A/J	.	.	.
!	!	!LO:TX:t=P:problem=kreska pseudotaktowa	!	!LO:TX:t=P:problem=kreska pseudotaktowa	!	!	!
.	.	2F/	.	2B-/	.	.	.
!LO:PB;g=original	!	!	!	!	!	!	!
!LO:TX:t=P:problem=kreska pseudotaktowa	!	!	!	!	!	!LO:TX:t=P:problem=kreska pseudotaktowa	!
1C/	.	2G/	.	2c/	.	1e\	.
*	*	*	*	*	*ij	*	*
.	.	1c\	.	1g\	mi-	.	.
=131-	=131-	=131-	=131-	=131-	=131-	=131-	=131-
2r	.	.	.	.	.	2r	.
!	!	!LO:TX:t=P:problem=kreska pseudotaktowa	!	!LO:TX:t=P:problem=kreska pseudotaktowa	!	!	!
2c\	mi-	2c/	.	2g\	-ſe-	1e\	mi-
2c\	-ſe-	2A/	.	1.a\	-re-	.	.
!LO:TX:t=P:problem=kreska pseudotaktowa	!	!	!	!	!	!LO:TX:t=P:problem=kreska pseudotaktowa	!
*	*	*	*ij	*	*	*	*
2F/	-re-	2.d/	mi-	.	.	2f/	-ſe-
=132-	=132-	=132-	=132-	=132-	=132-	=132-	=132-
1A\	-re	.	.	.	.	2e/	-re-
.	.	4c/	-ſe-	.	.	.	.
.	.	2.c/	-re-	2f\	-re	2c/	-re
1G\	no-	.	.	1g\	no-	1d/	no-
.	.	8B-/L	-re	.	.	.	.
.	.	8A/J	.	.	.	.	.
.	.	2B-/	no-	.	.	.	.
=133-	=133-	=133-	=133-	=133-	=133-	=133-	=133-
!LO:TX:t=P:problem=kreska pseudotaktowa	!	!LO:TX:t=P:problem=kreska pseudotaktowa	!	!LO:TX:t=P:problem=kreska pseudotaktowa	!	!LO:TX:t=P:problem=kreska pseudotaktowa	!
1C/	-bis;	0c\	-bis	1g\	-bis	0.e\	-biS.
*	*	*	*Xij	*	*Xij	*	*
2r	.	.	.	2r	.	.	.
!	!	!	!	!LO:SIC:v:t=custos g	!	!	!
1c\	Quo-	.	.	1g\	Quo-	.	.
!	!	!	!	!LO:LB:g=original	!	!	!
=134-	=134-	=134-	=134-	=134-	=134-	=134-	=134-
.	.	1r	.	.	.	.	.
!LO:TX:t=P:problem=kreska pseudotaktowa	!	!	!	!LO:TX:t=P:problem=kreska pseudotaktowa	!	!	!
2c\	-ni-	.	.	2g\	-ni-	.	.
!	!	!	!	!	!	!LO:TX:a:t=3.	!
1A\	-a(m)	2r	.	1.a\	-am	1r	.
.	.	1F/	Quo-	.	.	.	.
=135-	=135-	=135-	=135-	=135-	=135-	=135-	=135-
1d\	tu	.	.	.	.	0r	.
!	!	!LO:TX:t=P:problem=kreska pseudotaktowa	!	!	!	!	!
.	.	2G/	-ni-	4g\	.	.	.
!	!	!	!	!LO:TX:t=P:problem=kreska pseudotaktowa	!	!	!
.	.	.	.	4f\	.	.	.
2c\	ſo-	2A/	-a(m)	2e\	tu	.	.
!LO:TX:t=P:problem=kreska pseudotaktowa	!	!	!	!	!	!	!
2A\	-lus	2F/	tu	2f\	ſo-	.	.
=136-	=136-	=136-	=136-	=136-	=136-	=136-	=136-
!	!	!LO:SIC:v:t=custos A	!	!	!	!LO:TX:t=P:problem=kreska pseudotaktowa	!
2B-\	ſa(n)c-	2G/	ſo-	2d\	-lus	2r	.
!	!	!LO:LB:g=original	!	!	!	!	!
2c\	.	2.A/	-lus	1f\	ſanc-	1a\	Quo-
!LO:TX:t=P:problem=kreska pseudotaktowa	!	!	!	!	!	!	!
1F\	-tus;	.	.	.	.	.	.
.	.	4B-/	.	.	.	.	.
!	!	!	!	!LO:TX:t=P:problem=kreska pseudotaktowa	!	!LO:TX:t=P:problem=kreska pseudotaktowa	!
.	.	4c/	.	2e\	.	2a\	-ni-
!	!	!LO:TX:t=P:problem=kreska pseudotaktowa	!	!	!	!	!
.	.	4A/	ſan-	.	.	.	.
=137-	=137-	=137-	=137-	=137-	=137-	=137-	=137-
0r	.	2B-/	-ctus,	2d\	-tus;	2g\	-a(m)
!	!	!	!	!	!	!LO:TX:t=P:problem=kreska pseudotaktowa	!
.	.	2c/	.	2c/	.	2e/	tu
.	.	1d\	.	1B-/	.	2f/	ſo-
.	.	.	.	.	.	2g\	-lus
=138-	=138-	=138-	=138-	=138-	=138-	=138-	=138-
!	!	!LO:TX:t=P:problem=kreska pseudotaktowa	!	!LO:TX:t=P:problem=kreska pseudotaktowa	!	!	!
1.F\	tu	1c\	.	0A/	.	1.a\	ſan-
.	.	2r	.	.	.	.	.
!LO:SIC:v:t=custos A	!	!	!	!	!	!	!
!LO:TX:t=P:problem=kreska pseudotaktowa	!	!	!	!	!	!	!
2F/	ſo-	1c\	tu	.	.	4g\	.
!	!	!	!	!	!	!LO:TX:t=P:problem=kreska pseudotaktowa	!
.	.	.	.	.	.	4f\	.
!LO:LB;g=original	!	!	!	!	!	!	!
=139-	=139-	=139-	=139-	=139-	=139-	=139-	=139-
1A\	-lus	.	.	1r	.	2e/	.
!	!	!LO:TX:t=P:problem=kreska pseudotaktowa	!	!	!	!LO:SIC:v:t=custos f	!
.	.	2c/	ſo-	.	.	2a\	.
!	!	!	!	!	!	!LO:LB;g=original	!
1B-\	do-	2d\	-lus	2r	.	2f/	.
!	!	!LO:TX:t=P:problem=przeróbka tekstu, skreślone "altissimus"	!	!LO:TX:t=P:problem=kreska pseudotaktowa	!	!LO:TX:t=P:problem=kreska pseudotaktowa	!
.	.	2.f\	do-	2d/	tu	2f/	-ctus,
=140-	=140-	=140-	=140-	=140-	=140-	=140-	=140-
1G\	-mi-	.	.	2B-/	ſo-	2g\	.
.	.	8e\L	.	.	.	.	.
.	.	8d\J	.	.	.	.	.
.	.	2e\	-mi-	2B-/	-lus	2g\	.
!LO:TX:t=P:problem=kreska pseudotaktowa	!	!LO:TX:t=P:problem=kreska pseudotaktowa	!	!	!	!LO:TX:t=P:problem=kreska pseudotaktowa	!
1F\	-nus,	0f\	-nus	2c/	do-	0a\	tu
!	!	!	!	!LO:TX:t=P:problem=kreska pseudotaktowa	!	!	!
.	.	.	.	2c/	-mi-	.	.
=141-	=141-	=141-	=141-	=141-	=141-	=141-	=141-
!	!	!	!	!LO:TX:t=P:problem=kreska pseudotaktowa	!	!	!
1r	.	.	.	1d\	-nus,	.	.
*	*	*	*ij	*	*	*	*
1.F\	tu	1.c\	tu	1.A/	tu	1.f\	ſo-
=142-	=142-	=142-	=142-	=142-	=142-	=142-	=142-
!	!	!	!	!LO:SIC:v:t=custos A	!	!	!
!	!	!	!	!LO:TX:t=P:problem=kreska pseudotaktowa	!	!LO:TX:t=P:problem=kreska pseudotaktowa	!
2F/	ſo-	2c/	ſo-	2A/	ſo-	2f/	-lus
!	!	!	!	!LO:LB:g=original	!	!	!
2D/	-lus	2d\	-lus	2A/	-lus	2f/	do-
*	*	*	*Xij	*	*	*	*
!	!	!LO:TX:t=P:problem=kreska pseudotaktowa	!	!LO:TX:t=P:problem=kreska pseudotaktowa	!	!	!
2C/	al-	2e\	al-	2c/	al-	2g\	.
=143-	=143-	=143-	=143-	=143-	=143-	=143-	=143-
1F\	-tiſ-	1f\	-tiſ-	1c\	-tiſ-	1a\	-mi-
!	!	!LO:SIC:v:t=custos c	!	!	!	!	!
!	!	!LO:TX:t=P:problem=kreska pseudotaktowa	!	!	!	!LO:TX:t=P:problem=kreska pseudotaktowa	!
1G\	-si-	1d\	-si-	1B-/	-si-	1g\	.
!	!	!LO:PB:g=original	!	!	!	!	!
=144-	=144-	=144-	=144-	=144-	=144-	=144-	=144-
!LO:TX:t=P:problem=kreska pseudotaktowa	!	!	!	!LO:SIC:v:t=custos c	!	!	!
0C/	-mus	1c\	-mus	1G/	-mus	0e\	-nus,
!	!	!LO:TX:t=P:problem=kreska pseudotaktowa	!	!	!	!	!
.	.	1e\	.	0c\	Ie-	.	.
=145-	=145-	=145-	=145-	=145-	=145-	=145-	=145-
!	!	!	!	!	!	!LO:TX:t=P:problem=kreska pseudotaktowa	!
0F\	Ie-	0f\	Ie-	.	.	0a\	Ie-
*	*	*	*	*lig	*	*	*
.	.	.	.	1c\	-ſu	.	.
=146-	=146-	=146-	=146-	=146-	=146-	=146-	=146-
!LO:TX:t=P:problem=kreska pseudotaktowa	!	!LO:TX:t=P:problem=kreska pseudotaktowa	!	!LO:TX:t=P:problem=kreska pseudotaktowa	!	!	!
1G\	-ſu	1d\	-ſu	1B-/	.	1g\	-ſu
*	*	*	*	*Xlig	*	*	*
1.B-\	Chri-	1.d\	Chri-	2.B-/	Chri-	1f\	.
.	.	.	.	4c/	.	.	.
=147-	=147-	=147-	=147-	=147-	=147-	=147-	=147-
.	.	.	.	4d\	.	0g\	Chri-
.	.	.	.	4e\	.	.	.
2A\	.	2c/	.	1f\	-ſte;	.	.
1G\	-ſte	1B-/	-ſte	.	.	.	.
.	.	.	.	2e\	.	.	.
=148-	=148-	=148-	=148-	=148-	=148-	=148-	=148-
*M3/1	*	*M3/1	*	*M3/1	*	*M3/1	*
!	!	!LO:TX:t=P:problem=kreska pseudotaktowa	!	!	!	!	!
0F\	.	0.A/	.	0f\	.	0c/	-ſte,
!LO:SIC:v:t=custos c	!	!	!	!	!	!	!
!LO:TX:t=P:problem=kreska pseudotaktowa	!	!	!	!LO:TX:t=P:problem=kreska pseudotaktowa	!	!LO:TX:t=P:problem=kreska pseudotaktowa	!
1r	.	.	.	1r	.	1r	.
!LO:LB;g=original	!	!	!	!	!	!	!
=149-	=149-	=149-	=149-	=149-	=149-	=149-	=149-
1c\	Cum	1%3r	.	1g\	Cum	0e\	Cu(m)
1c\	ſanc-	.	.	1g\	ſanc-	.	.
!LO:TX:t=P:problem=kreska pseudotaktowa	!	!	!	!LO:TX:t=P:problem=kreska pseudotaktowa	!	!LO:TX:t=P:problem=kreska pseudotaktowa	!
1F\	-to	.	.	1a\	-to	1f\	ſa(n)-
=150-	=150-	=150-	=150-	=150-	=150-	=150-	=150-
0G\	ſp(i-	1d\	Cum	1.g\	ſpi-	1d/	-cto
.	.	1d\	ſanc-	.	.	1.g\	ſpi-
.	.	.	.	2f\	.	.	.
!	!	!LO:TX:t=P:problem=kreska pseudotaktowa	!	!	!	!	!
1G\	-ri-	1B-/	-to	2e\	-ri-	.	.
!	!	!	!	!LO:SIC:v:t=custos c	!	!LO:SIC:v:t=custos e	!
!	!	!	!	!LO:TX:t=P:problem=kreska pseudotaktowa	!	!LO:TX:t=P:problem=kreska pseudotaktowa	!
.	.	.	.	2d\	.	2f/	.
!	!	!	!	!LO:PB:g=original	!	!LO:LB:g=original	!
=151-	=151-	=151-	=151-	=151-	=151-	=151-	=151-
0A\	-t)u	1.c\	ſpi-	0c\	-tu	2e/	-ri-
.	.	.	.	.	.	2d/	.
!	!	!	!	!	!	!LO:TX:t=P:problem=kreska pseudotaktowa	!
.	.	.	.	.	.	0c/	-tu,
.	.	2B-/	.	.	.	.	.
!LO:TX:t=P:problem=kreska pseudotaktowa	!	!	!	!LO:TX:t=P:problem=kreska pseudotaktowa	!	!	!
1r	.	2A/	.	1r	.	.	.
!	!	!LO:TX:t=P:problem=kreska pseudotaktowa	!	!	!	!	!
.	.	2G/	-ri-	.	.	.	.
=152-	=152-	=152-	=152-	=152-	=152-	=152-	=152-
!	!	!LO:SIC:v:t=custos d	!	!	!	!	!
!	!	!LO:TX:t=P:problem=kreska pseudotaktowa	!	!	!	!	!
1c\	in	0F/	-tu	1a\	in	1f\	in
1c\	glo-	.	.	1a\	glo-	1f\	glo-
!	!	!LO:LB:g=original	!	!	!	!	!
!LO:TX:t=P:problem=kreska pseudotaktowa	!	!	!	!LO:TX:t=P:problem=kreska pseudotaktowa	!	!LO:TX:t=P:problem=kreska pseudotaktowa	!
1F\	-ri-	1r	.	1a\	-ri-	1f\	-ri-
=153-	=153-	=153-	=153-	=153-	=153-	=153-	=153-
0G\	-a	1d\	in	1.g\	-a-	1d/	-a
.	.	1d\	glo-	.	.	1.g\	de-
.	.	.	.	2f\	-de-	.	.
!	!	!LO:TX:t=P:problem=kreska pseudotaktowa	!	!	!	!	!
1G\	de-	1B-/	-ria	2e\	.	.	.
!	!	!	!	!LO:TX:t=P:problem=kreska pseudotaktowa	!	!LO:TX:t=P:problem=kreska pseudotaktowa	!
.	.	.	.	2d/	.	2f/	-i
=154-	=154-	=154-	=154-	=154-	=154-	=154-	=154-
1.A\	-i	1.c\	de-	1c\	-i;-	2e/	.
.	.	.	.	.	.	2d/	.
.	.	.	.	1a\	-pa-	1.c/	.
2B-\	.	2d\	-i	.	.	.	.
!LO:TX:t=P:problem=kreska pseudotaktowa	!	!LO:TX:t=P:problem=kreska pseudotaktowa	!	!LO:TX:t=P:problem=kreska pseudotaktowa	!	!	!
1c\	.	1e\	.	1g\	.	.	.
!	!	!	!	!	!	!LO:TX:t=P:problem=kreska pseudotaktowa	!
.	.	.	.	.	.	2B-/	.
=155-	=155-	=155-	=155-	=155-	=155-	=155-	=155-
1.F\	pa-	1.f\	.	1.a\	-tris;	2A/	.
.	.	.	.	.	.	2G/	.
.	.	.	.	.	.	0F/	.
2G/	.	2e\	.	2g\	.	.	.
!LO:SIC:v:t=custos D	!	!	!	!	!	!	!
!LO:TX:t=P:problem=kreska pseudotaktowa	!	!LO:TX:t=P:problem=kreska pseudotaktowa	!	!	!	!	!
1A\	-tris,	1c\	.	2f\	.	.	.
!	!	!	!	!LO:TX:t=P:problem=kreska pseudotaktowa	!	!	!
.	.	.	.	2e\	.	.	.
!LO:LB;g=original	!	!	!	!	!	!	!
=156-	=156-	=156-	=156-	=156-	=156-	=156-	=156-
1D/	.	1d\	.	1.f\	.	1.f\	pa-
!	!	!LO:TX:t=P:problem=kreska pseudotaktowa	!	!	!	!	!
1.F\	.	0c\	pa-	.	.	.	.
.	.	.	.	2e\	.	2g\	.
*	*	*	*	*lig	*	*	*
!	!	!	!	!	!	!LO:TX:t=P:problem=kreska pseudotaktowa	!
.	.	.	.	1c\	A-	1a\	-tris
!LO:TX:t=P:problem=kreska pseudotaktowa	!	!	!	!	!	!	!
2E/	.	.	.	.	.	.	.
=157-	=157-	=157-	=157-	=157-	=157-	=157-	=157-
*	*	*	*	*	*	*col	*
1D/	.	1F/	-triſ,	1d\	.	1f\	.
*	*	*	*	*Xlig	*	*	*
1C/	.	1.c\	.	1e\	.	1g\	.
!	!	!	!	!LO:TX:t=P:problem=kreska pseudotaktowa	!	!	!
!	!	!	!	!LO:SIC:v:t=custos e	!	!	!
0F\	.	.	.	0f\;	-men	0a\	A-
!	!	!LO:TX:t=P:problem=kreska pseudotaktowa	!	!	!	!	!
.	.	2B-/	.	.	.	.	.
!	!	!	!	!LO:LB:g=original	!	!	!
=158-	=158-	=158-	=158-	=158-	=158-	=158-	=158-
*	*	*col	*	*	*	*	*
.	.	2A/	A-	.	.	.	.
.	.	2G/	.	.	.	.	.
!	!	!	!	!LO:TX:t=P:problem=odtąd partia zapisana na końcu drugiego systemu zamiast na początku	!	!	!
1C/	Amen	1c\	-men.	1e\	A-	0g\	.
0D/	.	0F/	.	1d\	.	.	.
*col	*	*lig	*	*	*	*	*
*	*	*	*	*	*	*Xcol	*
=159-	=159-	=159-	=159-	=159-	=159-	=159-	=159-
*	*	*	*	*col	*	*	*
.	.	.	.	1B-/	.	0f\	-men
0C/	.	0G/	.	0c\	.	.	.
.	.	.	.	.	.	1e\	.
*Xcol	*	*Xcol	*	*	*	*	*
*	*	*Xlig	*	*	*	*	*
=160-	=160-	=160-	=160-	=160-	=160-	=160-	=160-
0.F\;<	.	0.A/;	.	0.c\;<	-men	0.f\;<	.
==	==	==	==	==	==	==	==
*-	*-	*-	*-	*-	*-	*-	*-
!!!system-decoration: [(s1,s2,s3,s4)]
!!!RDF**kern: < = below
!!!AIN: 3 empty 1 tenor
!!!ENC: Mateusz Solarz
!!!END: 2022-01-13
!!!ENC: Leszek Kubiak
!!!END: 2022-01-26
